; generated by Slic3r 0.9.4-dev on 2012-11-21 at 12:21:27

; layer_height = 0.25
; perimeters = 3
; top_solid_layers = 3
; bottom_solid_layers = 3
; fill_density = 0.4
; perimeter_speed = 30
; infill_speed = 30
; travel_speed = 30
; scale = 1
; nozzle_diameter = 0.35
; filament_diameter = 1.75
; extrusion_multiplier = 1
; perimeters extrusion width = 0.39mm
; infill extrusion width = 0.39mm
; first layer extrusion width = 0.70mm

M190 S65 ; wait for bed temperature to be reached
M104 S190 ; set temperature
G28 ; home all axes
M109 S190 ; wait for temperature to be reached
G90 ; use absolute coordinates
G21 ; set units to millimeters
G92 E0
M82 ; use absolute distances for extrusion
G1 F1800.000 E-1.00000
G92 E0
G1 Z0.350 F1800.000
G1 X57.120 Y42.231
G1 F1800.000 E1.00000
G1 X57.380 Y42.201 F540.000 E1.02380
G1 X57.640 Y42.181 E1.04751
G1 X102.350 Y42.181 E5.11297
G1 X102.610 Y42.201 E5.13668
G1 X102.870 Y42.231 E5.16048
G1 X103.140 Y42.261 E5.18518
G1 X103.400 Y42.311 E5.20926
G1 X103.660 Y42.371 E5.23352
G1 X103.920 Y42.441 E5.25801
G1 X104.170 Y42.511 E5.28161
G1 X104.420 Y42.601 E5.30577
G1 X104.670 Y42.701 E5.33026
G1 X104.910 Y42.811 E5.35426
G1 X105.150 Y42.931 E5.37866
G1 X105.380 Y43.051 E5.40225
G1 X105.610 Y43.191 E5.42673
G1 X105.830 Y43.331 E5.45045
G1 X106.050 Y43.491 E5.47518
G1 X106.260 Y43.651 E5.49919
G1 X106.460 Y43.821 E5.52305
G1 X106.660 Y44.001 E5.54752
G1 X106.850 Y44.191 E5.57195
G1 X107.030 Y44.381 E5.59575
G1 X107.200 Y44.581 E5.61962
G1 X107.370 Y44.791 E5.64419
G1 X107.530 Y45.001 E5.66819
G1 X107.670 Y45.221 E5.69191
G1 X107.810 Y45.451 E5.71639
G1 X107.940 Y45.681 E5.74041
G1 X108.070 Y45.921 E5.76523
G1 X108.180 Y46.161 E5.78924
G1 X108.280 Y46.401 E5.81288
G1 X108.370 Y46.651 E5.83704
G1 X108.450 Y46.901 E5.86091
G1 X108.530 Y47.161 E5.88564
G1 X108.590 Y47.421 E5.90991
G1 X108.640 Y47.681 E5.93398
G1 X108.680 Y47.941 E5.95790
G1 X108.710 Y48.201 E5.98170
G1 X108.730 Y48.471 E6.00632
G1 X108.740 Y48.731 E6.02998
G1 X108.740 Y49.001 E6.05453
G1 X108.730 Y49.271 E6.07910
G1 X108.710 Y49.531 E6.10281
G1 X108.670 Y49.791 E6.12673
G1 X108.630 Y50.061 E6.15155
G1 X108.580 Y50.321 E6.17562
G1 X98.630 Y94.131 E10.26070
G1 X98.570 Y94.371 E10.28319
G1 X98.500 Y94.611 E10.30592
G1 X98.420 Y94.851 E10.32893
G1 X98.330 Y95.091 E10.35223
G1 X98.230 Y95.321 E10.37504
G1 X98.160 Y95.481 E10.39092
G1 X98.060 Y95.711 E10.41372
G1 X97.940 Y95.941 E10.43731
G1 X97.810 Y96.171 E10.46134
G1 X97.680 Y96.391 E10.48457
G1 X97.540 Y96.601 E10.50752
G1 X97.450 Y96.731 E10.52190
G1 X97.310 Y96.931 E10.54410
G1 X97.160 Y97.121 E10.56611
G1 X97.010 Y97.301 E10.58742
G1 X96.850 Y97.481 E10.60931
G1 X96.620 Y97.711 E10.63889
G1 X96.360 Y97.961 E10.67169
G1 X96.090 Y98.191 E10.70394
G1 X95.810 Y98.401 E10.73577
G1 X95.520 Y98.601 E10.76780
G1 X95.220 Y98.781 E10.79961
G1 X95.080 Y98.861 E10.81427
G1 X94.390 Y99.201 E10.88422
G1 X94.320 Y99.231 E10.89114
G1 X94.050 Y99.341 E10.91765
G1 X93.780 Y99.441 E10.94383
G1 X93.500 Y99.531 E10.97058
G1 X93.210 Y99.601 E10.99770
G1 X92.930 Y99.661 E11.02374
G1 X92.770 Y99.691 E11.03854
G1 X92.520 Y99.731 E11.06157
G1 X92.280 Y99.761 E11.08356
G1 X92.030 Y99.781 E11.10636
G1 X91.790 Y99.801 E11.12826
G1 X68.200 Y99.801 E13.27329
G1 X67.960 Y99.781 E13.29519
G1 X67.710 Y99.761 E13.31799
G1 X67.470 Y99.731 E13.33999
G1 X67.220 Y99.691 E13.36301
G1 X67.060 Y99.661 E13.37781
G1 X66.780 Y99.601 E13.40385
G1 X66.490 Y99.531 E13.43098
G1 X66.210 Y99.441 E13.45772
G1 X65.940 Y99.341 E13.48390
G1 X65.670 Y99.231 E13.51041
G1 X65.600 Y99.201 E13.51734
G1 X64.910 Y98.861 E13.58728
G1 X64.770 Y98.781 E13.60194
G1 X64.470 Y98.601 E13.63375
G1 X64.180 Y98.401 E13.66579
G1 X63.900 Y98.191 E13.69761
G1 X63.630 Y97.961 E13.72986
G1 X63.370 Y97.711 E13.76266
G1 X63.140 Y97.481 E13.79224
G1 X62.980 Y97.301 E13.81414
G1 X62.830 Y97.121 E13.83544
G1 X62.680 Y96.931 E13.85745
G1 X62.540 Y96.731 E13.87965
G1 X62.450 Y96.601 E13.89403
G1 X62.310 Y96.391 E13.91698
G1 X62.180 Y96.171 E13.94022
G1 X62.050 Y95.941 E13.96424
G1 X61.930 Y95.711 E13.98783
G1 X61.830 Y95.481 E14.01063
G1 X61.760 Y95.321 E14.02651
G1 X61.660 Y95.091 E14.04932
G1 X61.570 Y94.851 E14.07263
G1 X61.490 Y94.611 E14.09563
G1 X61.420 Y94.371 E14.11836
G1 X61.360 Y94.131 E14.14086
G1 X51.410 Y50.321 E18.22593
G1 X51.360 Y50.061 E18.25001
G1 X51.320 Y49.791 E18.27483
G1 X51.280 Y49.531 E18.29874
G1 X51.260 Y49.271 E18.32246
G1 X51.250 Y49.001 E18.34702
G1 X51.250 Y48.731 E18.37158
G1 X51.260 Y48.471 E18.39523
G1 X51.280 Y48.201 E18.41985
G1 X51.310 Y47.941 E18.44365
G1 X51.350 Y47.681 E18.46757
G1 X51.400 Y47.421 E18.49165
G1 X51.460 Y47.161 E18.51591
G1 X51.540 Y46.901 E18.54064
G1 X51.620 Y46.651 E18.56451
G1 X51.710 Y46.401 E18.58867
G1 X51.810 Y46.161 E18.61231
G1 X51.920 Y45.921 E18.63632
G1 X52.050 Y45.681 E18.66114
G1 X52.180 Y45.451 E18.68516
G1 X52.320 Y45.221 E18.70965
G1 X52.460 Y45.001 E18.73336
G1 X52.620 Y44.791 E18.75736
G1 X52.790 Y44.581 E18.78193
G1 X52.960 Y44.381 E18.80580
G1 X53.140 Y44.191 E18.82960
G1 X53.330 Y44.001 E18.85403
G1 X53.530 Y43.821 E18.87850
G1 X53.730 Y43.651 E18.90237
G1 X53.940 Y43.491 E18.92637
G1 X54.160 Y43.331 E18.95111
G1 X54.380 Y43.191 E18.97482
G1 X54.610 Y43.051 E18.99930
G1 X54.840 Y42.931 E19.02289
G1 X55.080 Y42.811 E19.04729
G1 X55.320 Y42.701 E19.07130
G1 X55.570 Y42.601 E19.09578
G1 X55.820 Y42.511 E19.11994
G1 X56.070 Y42.441 E19.14355
G1 X56.330 Y42.371 E19.16803
G1 X56.590 Y42.311 E19.19229
G1 X56.850 Y42.261 E19.21637
G1 X57.120 Y42.231 E19.24107
G1 F1800.000 E18.24107
G92 E0
G1 X69.038 Y91.824 F1800.000
G1 F1800.000 E1.00000
G1 X59.573 Y50.176 F540.000 E4.88363
G1 X100.427 Y50.176 E8.59849
G1 X90.962 Y91.824 E12.48212
G1 X69.038 Y91.824 E14.47563
G1 F1800.000 E13.47563
G92 E0
G1 X58.743 Y49.513 F1800.000
G1 F1800.000 E1.00000
G1 X101.257 Y49.513 F540.000 E4.86579
G1 X91.491 Y92.487 E8.87296
G1 X68.509 Y92.487 E10.96263
G1 X58.743 Y49.513 E14.96980
G1 X57.913 Y48.851 F1800.000
G1 X102.087 Y48.851 F540.000 E18.98651
G1 X92.131 Y92.657 E23.07130
G1 X92.104 Y92.739 E23.07920
G1 X92.069 Y92.814 E23.08674
G1 X92.025 Y92.883 E23.09420
G1 X91.973 Y92.946 E23.10157
G1 X91.914 Y93.001 E23.10895
G1 X91.848 Y93.049 E23.11637
G1 X91.776 Y93.089 E23.12381
G1 X91.701 Y93.118 E23.13113
G1 X91.621 Y93.139 E23.13866
G1 X91.541 Y93.149 E23.14606
G1 X68.459 Y93.149 E25.24481
G1 X68.379 Y93.139 E25.25221
G1 X68.299 Y93.118 E25.25973
G1 X68.224 Y93.089 E25.26706
G1 X68.152 Y93.049 E25.27450
G1 X68.086 Y93.001 E25.28192
G1 X68.027 Y92.946 E25.28930
G1 X67.975 Y92.883 E25.29666
G1 X67.931 Y92.814 E25.30417
G1 X67.896 Y92.739 E25.31166
G1 X67.869 Y92.657 E25.31956
G1 X57.913 Y48.851 E29.40435
G1 X58.109 Y48.217 F1800.000
G1 F1800.000 E28.40435
G92 E0
G1 X69.778 Y91.373 F1800.000
G1 F1800.000 E1.00000
G1 X69.356 Y90.951 F540.000 E1.03947
G1 X69.080 Y89.737 E1.12182
G1 X70.716 Y91.373 E1.27485
G1 X71.654 Y91.373 E1.33691
G1 X68.804 Y88.523 E1.60352
G1 X68.528 Y87.309 E1.68587
G1 X72.592 Y91.373 E2.06605
G1 X73.530 Y91.373 E2.12811
G1 X68.252 Y86.095 E2.62186
G1 X67.977 Y84.881 E2.70421
G1 X74.468 Y91.373 E3.31153
G1 X75.406 Y91.373 E3.37359
G1 X67.701 Y83.667 E4.09448
G1 X67.425 Y82.453 E4.17684
G1 X76.344 Y91.373 E5.01131
G1 X77.282 Y91.373 E5.07336
G1 X67.149 Y81.239 E6.02140
G1 X66.873 Y80.025 E6.10375
G1 X78.220 Y91.373 E7.16536
G1 X79.158 Y91.373 E7.22741
G1 X66.597 Y78.811 E8.40259
G1 X66.321 Y77.597 E8.48495
G1 X80.096 Y91.373 E9.77369
G1 X81.034 Y91.373 E9.83575
G1 X66.045 Y76.383 E11.23807
G1 X65.769 Y75.170 E11.32042
G1 X81.972 Y91.373 E12.83632
G1 X82.911 Y91.373 E12.89837
G1 X65.494 Y73.956 E14.52784
G1 X65.218 Y72.742 E14.61019
G1 X83.849 Y91.373 E16.35322
G1 X84.787 Y91.373 E16.41528
G1 X64.942 Y71.528 E18.27189
G1 X64.666 Y70.314 E18.35424
G1 X85.725 Y91.373 E20.32442
G1 X86.663 Y91.373 E20.38648
G1 X64.390 Y69.100 E22.47022
G1 X64.114 Y67.886 E22.55258
G1 X87.601 Y91.373 E24.74990
G1 X88.539 Y91.373 E24.81195
G1 X63.838 Y66.672 E27.12285
G1 X63.562 Y65.458 E27.20520
G1 X89.477 Y91.373 E29.62966
G1 X90.415 Y91.373 E29.69171
G1 X63.286 Y64.244 E32.22975
G1 X63.011 Y63.030 E32.31210
G1 X90.775 Y90.795 E34.90965
G1 X90.949 Y90.031 E34.96151
G1 X62.735 Y61.816 E37.60112
G1 X62.459 Y60.602 E37.68348
G1 X91.123 Y89.266 E40.36515
G1 X91.296 Y88.502 E40.41700
G1 X62.183 Y59.388 E43.14074
G1 X61.907 Y58.174 E43.22310
G1 X91.470 Y87.738 E45.98890
G1 X91.644 Y86.973 E46.04077
G1 X61.631 Y56.960 E48.84863
G1 X61.355 Y55.746 E48.93098
G1 X91.818 Y86.209 E51.78091
G1 X91.991 Y85.444 E51.83277
G1 X61.079 Y54.532 E54.72476
G1 X60.803 Y53.319 E54.80711
G1 X92.165 Y84.680 E57.74116
G1 X92.339 Y83.916 E57.79301
G1 X60.528 Y52.105 E60.76913
G1 X60.252 Y50.891 E60.85148
G1 X92.512 Y83.151 E63.86966
G1 X92.686 Y82.387 E63.92152
G1 X60.926 Y50.627 E66.89282
G1 X61.864 Y50.627 E66.95487
G1 X92.860 Y81.623 E69.85467
G1 X93.033 Y80.858 E69.90652
G1 X62.803 Y50.627 E72.73481
G1 X63.741 Y50.627 E72.79686
G1 X93.207 Y80.094 E75.55364
G1 X93.381 Y79.330 E75.60550
G1 X64.679 Y50.627 E78.29076
G1 X65.617 Y50.627 E78.35282
G1 X93.555 Y78.565 E80.96658
G1 X93.728 Y77.801 E81.01843
G1 X66.555 Y50.627 E83.56068
G1 X67.493 Y50.627 E83.62274
G1 X93.902 Y77.037 E86.09348
G1 X94.076 Y76.272 E86.14533
G1 X68.431 Y50.627 E88.54456
G1 X69.369 Y50.627 E88.60662
G1 X94.249 Y75.508 E90.93434
G1 X94.423 Y74.744 E90.98619
G1 X70.307 Y50.627 E93.24241
G1 X71.245 Y50.627 E93.30447
G1 X94.597 Y73.979 E95.48918
G1 X94.771 Y73.215 E95.54103
G1 X72.183 Y50.627 E97.65423
G1 X73.121 Y50.627 E97.71629
G1 X94.944 Y72.451 E99.75798
G1 X95.118 Y71.686 E99.80983
G1 X74.059 Y50.627 E101.78002
G1 X74.997 Y50.627 E101.84207
G1 X95.292 Y70.922 E103.74075
G1 X95.465 Y70.158 E103.79260
G1 X75.935 Y50.627 E105.61977
G1 X76.873 Y50.627 E105.68182
G1 X95.639 Y69.393 E107.43748
G1 X95.813 Y68.629 E107.48933
G1 X77.811 Y50.627 E109.17348
G1 X78.749 Y50.627 E109.23553
G1 X95.987 Y67.865 E110.84818
G1 X96.160 Y67.100 E110.90003
G1 X79.687 Y50.627 E112.44116
G1 X80.625 Y50.627 E112.50322
G1 X96.334 Y66.336 E113.97284
G1 X96.508 Y65.572 E114.02470
G1 X81.563 Y50.627 E115.42282
G1 X82.502 Y50.627 E115.48487
G1 X96.681 Y64.807 E116.81148
G1 X96.855 Y64.043 E116.86333
G1 X83.440 Y50.627 E118.11843
G1 X84.378 Y50.627 E118.18049
G1 X97.029 Y63.279 E119.36407
G1 X97.203 Y62.514 E119.41593
G1 X85.316 Y50.627 E120.52801
G1 X86.254 Y50.627 E120.59006
G1 X97.376 Y61.750 E121.63064
G1 X97.550 Y60.986 E121.68250
G1 X87.192 Y50.627 E122.65156
G1 X88.130 Y50.627 E122.71362
G1 X97.724 Y60.221 E123.61117
G1 X97.897 Y59.457 E123.66303
G1 X89.068 Y50.627 E124.48908
G1 X90.006 Y50.627 E124.55113
G1 X98.071 Y58.693 E125.30567
G1 X98.245 Y57.928 E125.35753
G1 X90.944 Y50.627 E126.04056
G1 X91.882 Y50.627 E126.10262
G1 X98.418 Y57.164 E126.71414
G1 X98.592 Y56.400 E126.76599
G1 X92.820 Y50.627 E127.30600
G1 X93.758 Y50.627 E127.36806
G1 X98.766 Y55.635 E127.83657
G1 X98.940 Y54.871 E127.88842
G1 X94.696 Y50.627 E128.28542
G1 X95.634 Y50.627 E128.34748
G1 X99.113 Y54.107 E128.67297
G1 X99.287 Y53.342 E128.72482
G1 X96.572 Y50.627 E128.97879
G1 X97.510 Y50.627 E129.04085
G1 X99.461 Y52.578 E129.22332
G1 X99.634 Y51.814 E129.27517
G1 X98.448 Y50.627 E129.38613
G1 X99.386 Y50.627 E129.44818
G1 X99.808 Y51.049 E129.48763
M104 S185 ; set temperature
M140 S60 ; set bed temperature
G1 F1800.000 E128.48763
G92 E0
G1 Z0.600 F1800.000
G1 X58.698 Y49.477
G1 F1800.000 E1.00000
G1 X101.302 Y49.477 F1800.000 E2.70418
G1 X91.519 Y92.523 E4.46989
G1 X68.481 Y92.523 E5.39144
G1 X58.698 Y49.477 E7.15716
G1 X58.210 Y49.088 F1800.000
G1 X101.790 Y49.088 F1800.000 E8.90038
G1 X91.903 Y92.593 E10.68498
G1 X91.884 Y92.651 E10.68742
G1 X91.861 Y92.700 E10.68956
G1 X91.833 Y92.744 E10.69167
G1 X91.801 Y92.783 E10.69370
G1 X91.763 Y92.818 E10.69572
G1 X91.720 Y92.849 E10.69786
G1 X91.675 Y92.874 E10.69991
G1 X91.629 Y92.892 E10.70192
G1 X91.577 Y92.906 E10.70406
G1 X91.525 Y92.912 E10.70614
G1 X68.475 Y92.912 E11.62816
G1 X68.423 Y92.906 E11.63024
G1 X68.371 Y92.892 E11.63238
G1 X68.325 Y92.874 E11.63438
G1 X68.279 Y92.849 E11.63646
G1 X68.237 Y92.818 E11.63856
G1 X68.200 Y92.783 E11.64060
G1 X68.167 Y92.744 E11.64263
G1 X68.139 Y92.700 E11.64474
G1 X68.116 Y92.651 E11.64688
G1 X68.097 Y92.593 E11.64932
G1 X58.210 Y49.088 E13.43391
G1 X57.722 Y48.698 F1800.000
G1 X102.278 Y48.698 F1800.000 E15.21618
G1 X92.279 Y92.697 E17.02103
G1 X92.246 Y92.796 E17.02517
G1 X92.203 Y92.888 E17.02924
G1 X92.149 Y92.973 E17.03328
G1 X92.085 Y93.051 E17.03730
G1 X92.011 Y93.119 E17.04133
G1 X91.929 Y93.179 E17.04538
G1 X91.842 Y93.227 E17.04939
G1 X91.748 Y93.264 E17.05340
G1 X91.650 Y93.289 E17.05746
G1 X91.550 Y93.302 E17.06148
G1 X68.450 Y93.302 E17.98551
G1 X68.350 Y93.289 E17.98953
G1 X68.252 Y93.264 E17.99359
G1 X68.158 Y93.227 E17.99760
G1 X68.070 Y93.178 E18.00164
G1 X67.989 Y93.119 E18.00566
G1 X67.915 Y93.051 E18.00968
G1 X67.851 Y92.973 E18.01371
G1 X67.797 Y92.888 E18.01775
G1 X67.754 Y92.796 E18.02182
G1 X67.721 Y92.697 E18.02596
G1 X57.722 Y48.698 E19.83081
G1 X57.838 Y48.324 F1800.000
G1 F1800.000 E18.83081
G92 E0
G1 X91.332 Y92.009 F1800.000
G1 F1800.000 E1.00000
G1 X91.084 Y92.257 F1800.000 E1.01412
G1 X90.530 Y92.257 E1.03641
G1 X91.496 Y91.291 E1.09133
G1 X91.659 Y90.574 E1.12093
G1 X89.976 Y92.257 E1.21666
G1 X89.421 Y92.257 E1.23895
G1 X91.822 Y89.857 E1.37550
G1 X91.985 Y89.139 E1.40509
G1 X88.867 Y92.257 E1.58244
G1 X88.312 Y92.257 E1.60474
G1 X92.148 Y88.422 E1.82290
G1 X92.311 Y87.704 E1.85249
G1 X87.758 Y92.257 E2.11146
G1 X87.204 Y92.257 E2.13376
G1 X92.474 Y86.987 E2.43353
G1 X92.637 Y86.269 E2.46313
G1 X86.649 Y92.257 E2.80371
G1 X86.095 Y92.257 E2.82601
G1 X92.800 Y85.552 E3.20740
G1 X92.963 Y84.834 E3.23699
G1 X85.540 Y92.257 E3.65919
G1 X84.986 Y92.257 E3.68149
G1 X93.126 Y84.117 E4.14450
G1 X93.289 Y83.400 E4.17409
G1 X84.432 Y92.257 E4.67791
G1 X83.877 Y92.257 E4.70021
G1 X93.452 Y82.682 E5.24483
G1 X93.615 Y81.965 E5.27442
G1 X83.323 Y92.257 E5.85986
G1 X82.768 Y92.257 E5.88215
G1 X93.778 Y81.247 E6.50840
G1 X93.941 Y80.530 E6.53799
G1 X82.214 Y92.257 E7.20504
G1 X81.660 Y92.257 E7.22734
G1 X94.104 Y79.812 E7.93521
G1 X94.267 Y79.095 E7.96480
G1 X81.105 Y92.257 E8.71347
G1 X80.551 Y92.257 E8.73577
G1 X94.431 Y78.377 E9.52525
G1 X94.594 Y77.660 E9.55484
G1 X79.996 Y92.257 E10.38513
G1 X79.442 Y92.257 E10.40742
G1 X94.757 Y76.943 E11.27852
G1 X94.920 Y76.225 E11.30811
G1 X78.888 Y92.257 E12.22001
G1 X78.333 Y92.257 E12.24231
G1 X95.083 Y75.508 E13.19502
G1 X95.246 Y74.790 E13.22461
G1 X77.779 Y92.257 E14.21813
G1 X77.224 Y92.257 E14.24043
G1 X95.409 Y74.073 E15.27476
G1 X95.572 Y73.355 E15.30435
G1 X76.670 Y92.257 E16.37948
G1 X76.116 Y92.257 E16.40178
G1 X95.735 Y72.638 E17.51772
G1 X95.898 Y71.920 E17.54732
G1 X75.561 Y92.257 E18.70407
G1 X75.007 Y92.257 E18.72636
G1 X96.061 Y71.203 E19.92392
G1 X96.224 Y70.486 E19.95352
G1 X74.453 Y92.257 E21.19189
G1 X73.898 Y92.257 E21.21419
G1 X96.387 Y69.768 E22.49337
G1 X96.550 Y69.051 E22.52297
G1 X73.344 Y92.257 E23.84296
G1 X72.789 Y92.257 E23.86525
G1 X96.713 Y68.333 E25.22605
G1 X96.876 Y67.616 E25.25564
G1 X72.235 Y92.257 E26.65725
G1 X71.681 Y92.257 E26.67954
G1 X97.039 Y66.898 E28.12196
G1 X97.202 Y66.181 E28.15155
G1 X71.126 Y92.257 E29.63477
G1 X70.572 Y92.257 E29.65707
G1 X97.365 Y65.463 E31.18110
G1 X97.528 Y64.746 E31.21069
G1 X70.017 Y92.257 E32.77553
G1 X69.463 Y92.257 E32.79783
G1 X97.692 Y64.029 E34.40348
G1 X97.855 Y63.311 E34.43307
G1 X68.909 Y92.257 E36.07952
G1 X68.609 Y92.002 E36.09534
G1 X98.018 Y62.594 E37.76808
G1 X98.181 Y61.876 E37.79767
G1 X68.507 Y91.550 E39.48552
G1 X68.404 Y91.098 E39.50415
G1 X98.344 Y61.159 E41.20712
G1 X98.507 Y60.441 E41.23672
G1 X68.301 Y90.647 E42.95481
G1 X68.199 Y90.195 E42.97344
G1 X98.670 Y59.724 E44.70664
G1 X98.833 Y59.006 E44.73623
G1 X68.096 Y89.743 E46.48454
G1 X67.994 Y89.291 E46.50317
G1 X98.996 Y58.289 E48.26660
G1 X99.159 Y57.571 E48.29619
G1 X67.891 Y88.840 E50.07473
G1 X67.788 Y88.388 E50.09337
G1 X99.322 Y56.854 E51.88702
G1 X99.485 Y56.137 E51.91661
G1 X67.686 Y87.936 E53.72538
G1 X67.583 Y87.484 E53.74401
G1 X99.648 Y55.419 E55.56789
