; generated by Slic3r 0.9.4-dev on 2012-11-16 at 19:46:14

; layer_height = 0.25
; perimeters = 3
; top_solid_layers = 3
; bottom_solid_layers = 3
; fill_density = 0.4
; perimeter_speed = 30
; infill_speed = 30
; travel_speed = 30
; scale = 1
; nozzle_diameter = 0.35
; filament_diameter = 1.75
; extrusion_multiplier = 1
; perimeters extrusion width = 0.39mm
; infill extrusion width = 0.39mm
; first layer extrusion width = 0.70mm

M190 S65 ; wait for bed temperature to be reached
M104 S190 ; set temperature
G28 ; home all axes
M109 S190 ; wait for temperature to be reached
G90 ; use absolute coordinates
G21 ; set units to millimeters
G92 E0
M82 ; use absolute distances for extrusion
G1 F1800.000 E-1.00000
G92 E0
G1 Z0.350 F1800.000
G1 X57.110 Y37.231
G1 F1800.000 E1.00000
G1 X57.370 Y37.201 F540.000 E1.02380
G1 X57.630 Y37.181 E1.04751
G1 X102.360 Y37.181 E5.11479
G1 X102.620 Y37.201 E5.13850
G1 X102.880 Y37.231 E5.16230
G1 X103.150 Y37.261 E5.18700
G1 X103.410 Y37.311 E5.21108
G1 X103.670 Y37.371 E5.23534
G1 X103.930 Y37.441 E5.25982
G1 X104.180 Y37.511 E5.28343
G1 X104.430 Y37.601 E5.30759
G1 X104.680 Y37.701 E5.33207
G1 X104.920 Y37.811 E5.35608
G1 X105.160 Y37.931 E5.38048
G1 X105.390 Y38.051 E5.40407
G1 X105.620 Y38.191 E5.42855
G1 X105.840 Y38.331 E5.45226
G1 X106.060 Y38.491 E5.47700
G1 X106.270 Y38.651 E5.50101
G1 X106.470 Y38.821 E5.52487
G1 X106.670 Y39.001 E5.54934
G1 X106.860 Y39.191 E5.57377
G1 X107.040 Y39.381 E5.59757
G1 X107.210 Y39.581 E5.62144
G1 X107.380 Y39.791 E5.64601
G1 X107.540 Y40.001 E5.67001
G1 X107.680 Y40.221 E5.69372
G1 X107.820 Y40.451 E5.71821
G1 X108.080 Y40.911 E5.76625
G1 X108.190 Y41.161 E5.79109
G1 X108.290 Y41.401 E5.81473
G1 X108.380 Y41.651 E5.83889
G1 X108.460 Y41.901 E5.86276
G1 X108.540 Y42.161 E5.88750
G1 X108.600 Y42.421 E5.91176
G1 X108.650 Y42.681 E5.93583
G1 X108.690 Y42.941 E5.95975
G1 X108.720 Y43.201 E5.98355
G1 X108.740 Y43.471 E6.00817
G1 X108.750 Y43.731 E6.03183
G1 X108.750 Y44.001 E6.05638
G1 X108.740 Y44.261 E6.08004
G1 X108.720 Y44.531 E6.10466
G1 X108.640 Y45.051 E6.15250
G1 X98.670 Y98.871 E11.12959
G1 X98.600 Y99.191 E11.15937
G1 X98.520 Y99.501 E11.18849
G1 X98.420 Y99.811 E11.21810
G1 X98.310 Y100.121 E11.24802
G1 X98.190 Y100.421 E11.27740
G1 X98.090 Y100.641 E11.29937
G1 X97.950 Y100.911 E11.32702
G1 X97.810 Y101.171 E11.35388
G1 X97.660 Y101.431 E11.38117
G1 X97.490 Y101.681 E11.40866
G1 X97.320 Y101.921 E11.43540
G1 X97.130 Y102.161 E11.46324
G1 X96.930 Y102.381 E11.49027
G1 X96.820 Y102.501 E11.50507
G1 X96.580 Y102.751 E11.53659
G1 X96.330 Y102.981 E11.56748
G1 X96.070 Y103.211 E11.59904
G1 X95.510 Y103.611 E11.66162
G1 X95.220 Y103.781 E11.69218
G1 X95.080 Y103.861 E11.70685
G1 X94.390 Y104.201 E11.77679
G1 X94.320 Y104.231 E11.78372
G1 X94.050 Y104.341 E11.81023
G1 X93.780 Y104.441 E11.83641
G1 X93.500 Y104.531 E11.86315
G1 X93.210 Y104.601 E11.89028
G1 X92.930 Y104.661 E11.91631
G1 X92.770 Y104.691 E11.93112
G1 X92.520 Y104.731 E11.95414
G1 X92.280 Y104.761 E11.97613
G1 X92.030 Y104.781 E11.99894
G1 X91.790 Y104.801 E12.02084
G1 X68.200 Y104.801 E14.16586
G1 X67.960 Y104.781 E14.18776
G1 X67.710 Y104.761 E14.21057
G1 X67.470 Y104.731 E14.23256
G1 X67.220 Y104.691 E14.25558
G1 X67.060 Y104.661 E14.27038
G1 X66.780 Y104.601 E14.29642
G1 X66.490 Y104.531 E14.32355
G1 X66.210 Y104.441 E14.35029
G1 X65.940 Y104.341 E14.37647
G1 X65.670 Y104.231 E14.40298
G1 X65.600 Y104.201 E14.40991
G1 X64.910 Y103.861 E14.47985
G1 X64.770 Y103.781 E14.49452
G1 X64.480 Y103.611 E14.52508
G1 X63.920 Y103.211 E14.58766
G1 X63.660 Y102.981 E14.61922
G1 X63.410 Y102.751 E14.65011
G1 X63.170 Y102.501 E14.68162
G1 X63.060 Y102.381 E14.69643
G1 X62.860 Y102.161 E14.72346
G1 X62.670 Y101.921 E14.75130
G1 X62.500 Y101.681 E14.77804
G1 X62.330 Y101.431 E14.80553
G1 X62.180 Y101.171 E14.83282
G1 X62.040 Y100.911 E14.85967
G1 X61.900 Y100.641 E14.88733
G1 X61.800 Y100.421 E14.90930
G1 X61.680 Y100.121 E14.93868
G1 X61.570 Y99.811 E14.96859
G1 X61.470 Y99.501 E14.99821
G1 X61.390 Y99.191 E15.02732
G1 X61.320 Y98.871 E15.05711
G1 X51.350 Y45.051 E20.03420
G1 X51.270 Y44.531 E20.08204
G1 X51.250 Y44.261 E20.10666
G1 X51.240 Y44.001 E20.13032
G1 X51.240 Y43.731 E20.15487
G1 X51.250 Y43.471 E20.17853
G1 X51.270 Y43.201 E20.20315
G1 X51.300 Y42.941 E20.22695
G1 X51.340 Y42.681 E20.25087
G1 X51.390 Y42.421 E20.27494
G1 X51.450 Y42.161 E20.29920
G1 X51.530 Y41.901 E20.32394
G1 X51.610 Y41.651 E20.34781
G1 X51.700 Y41.401 E20.37197
G1 X51.800 Y41.161 E20.39561
G1 X51.910 Y40.911 E20.42044
G1 X52.170 Y40.451 E20.46849
G1 X52.310 Y40.221 E20.49297
G1 X52.450 Y40.001 E20.51669
G1 X52.610 Y39.791 E20.54069
G1 X52.780 Y39.581 E20.56526
G1 X52.950 Y39.381 E20.58913
G1 X53.130 Y39.191 E20.61293
G1 X53.320 Y39.001 E20.63736
G1 X53.520 Y38.821 E20.66183
G1 X53.720 Y38.651 E20.68569
G1 X53.930 Y38.491 E20.70970
G1 X54.150 Y38.331 E20.73444
G1 X54.370 Y38.191 E20.75815
G1 X54.600 Y38.051 E20.78263
G1 X54.830 Y37.931 E20.80622
G1 X55.070 Y37.811 E20.83062
G1 X55.310 Y37.701 E20.85462
G1 X55.560 Y37.601 E20.87911
G1 X55.810 Y37.511 E20.90327
G1 X56.060 Y37.441 E20.92688
G1 X56.320 Y37.371 E20.95136
G1 X56.580 Y37.311 E20.97562
G1 X56.840 Y37.261 E20.99970
G1 X57.110 Y37.231 E21.02440
G1 F1800.000 E20.02440
G92 E0
G1 X100.506 Y45.176 F1800.000
G1 F1800.000 E1.00000
G1 X91.114 Y95.869 F540.000 E5.68798
G1 X91.112 Y95.869 E5.68821
G1 X90.936 Y96.824 E5.77648
G1 X69.063 Y96.824 E7.76543
G1 X59.494 Y45.176 E12.54171
G1 X100.506 Y45.176 E16.27099
G1 X101.303 Y44.513 F1800.000
G1 X91.665 Y96.532 F540.000 E21.08150
G1 X91.663 Y96.532 E21.08164
G1 X91.488 Y97.487 E21.16991
G1 X68.512 Y97.487 E23.25914
G1 X58.697 Y44.513 E28.15794
G1 X101.303 Y44.513 E32.03207
G1 X102.099 Y43.851 F1800.000
G1 X92.216 Y97.194 F540.000 E36.96510
G1 X92.215 Y97.194 E36.96516
G1 X92.148 Y97.564 E36.99931
G1 X92.129 Y97.663 E37.00852
G1 X92.104 Y97.739 E37.01578
G1 X92.069 Y97.814 E37.02331
G1 X92.025 Y97.883 E37.03077
G1 X91.973 Y97.946 E37.03814
G1 X91.914 Y98.001 E37.04552
G1 X91.848 Y98.049 E37.05294
G1 X91.776 Y98.089 E37.06038
G1 X91.701 Y98.118 E37.06771
G1 X91.621 Y98.139 E37.07523
G1 X91.541 Y98.149 E37.08263
G1 X68.459 Y98.149 E39.18138
G1 X68.379 Y98.139 E39.18878
G1 X68.299 Y98.118 E39.19630
G1 X68.224 Y98.089 E39.20363
G1 X68.152 Y98.049 E39.21107
G1 X68.086 Y98.001 E39.21849
G1 X68.027 Y97.946 E39.22587
G1 X67.975 Y97.883 E39.23323
G1 X67.931 Y97.814 E39.24074
G1 X67.896 Y97.739 E39.24823
G1 X67.871 Y97.663 E39.25549
G1 X57.901 Y43.851 E44.23189
G1 X102.099 Y43.851 E48.25086
G1 X102.679 Y44.186 F1800.000
G1 F1800.000 E47.25086
G92 E0
G1 X69.825 Y96.373 F1800.000
G1 F1800.000 E1.00000
G1 X69.403 Y95.951 F540.000 E1.03981
G1 X69.188 Y94.790 E1.11865
G1 X70.771 Y96.373 E1.26808
G1 X71.717 Y96.373 E1.33123
G1 X68.973 Y93.628 E1.59028
G1 X68.757 Y92.467 E1.66911
G1 X72.663 Y96.373 E2.03778
G1 X73.609 Y96.373 E2.10093
G1 X68.542 Y91.306 E2.57921
G1 X68.327 Y90.144 E2.65804
G1 X74.555 Y96.373 E3.24594
G1 X75.501 Y96.373 E3.30909
G1 X68.112 Y88.983 E4.00660
G1 X67.897 Y87.822 E4.08544
G1 X76.447 Y96.373 E4.89257
G1 X77.394 Y96.373 E4.95572
G1 X67.682 Y86.661 E5.87247
G1 X67.466 Y85.499 E5.95130
G1 X78.340 Y96.373 E6.97767
G1 X79.286 Y96.373 E7.04082
G1 X67.251 Y84.338 E8.17680
G1 X67.036 Y83.177 E8.25563
G1 X80.232 Y96.373 E9.50123
G1 X81.178 Y96.373 E9.56438
G1 X66.821 Y82.015 E10.91960
G1 X66.606 Y80.854 E10.99843
G1 X82.124 Y96.373 E12.46327
G1 X83.070 Y96.373 E12.52642
G1 X66.391 Y79.693 E14.10088
G1 X66.176 Y78.532 E14.17970
G1 X84.016 Y96.373 E15.86378
G1 X84.963 Y96.373 E15.92693
G1 X65.960 Y77.370 E17.72061
G1 X65.745 Y76.209 E17.79945
G1 X85.909 Y96.373 E19.70275
G1 X86.855 Y96.373 E19.76590
G1 X65.530 Y75.048 E21.77883
G1 X65.315 Y73.887 E21.85766
G1 X87.801 Y96.373 E23.98020
G1 X88.747 Y96.373 E24.04335
G1 X65.100 Y72.725 E26.27551
G1 X64.885 Y71.564 E26.35434
G1 X89.693 Y96.373 E28.69611
G1 X90.602 Y96.336 E28.75684
G1 X64.669 Y70.403 E31.20473
G1 X64.454 Y69.242 E31.28356
G1 X90.750 Y95.537 E33.76573
G1 X90.898 Y94.739 E33.81992
G1 X64.239 Y68.080 E36.33635
G1 X64.024 Y66.919 E36.41518
G1 X91.046 Y93.941 E38.96589
G1 X91.194 Y93.143 E39.02008
G1 X63.809 Y65.758 E41.60506
G1 X63.594 Y64.596 E41.68389
G1 X91.342 Y92.345 E44.30314
G1 X91.490 Y91.546 E44.35732
G1 X63.378 Y63.435 E47.01085
G1 X63.163 Y62.274 E47.08968
G1 X91.638 Y90.748 E49.77748
G1 X91.785 Y89.950 E49.83166
G1 X62.948 Y61.113 E52.55373
G1 X62.733 Y59.951 E52.63256
G1 X91.933 Y89.152 E55.38891
G1 X92.081 Y88.354 E55.44309
G1 X62.518 Y58.790 E58.23370
G1 X62.303 Y57.629 E58.31253
G1 X92.229 Y87.555 E61.13742
G1 X92.377 Y86.757 E61.19160
G1 X62.087 Y56.468 E64.05076
G1 X61.872 Y55.306 E64.12959
G1 X92.525 Y85.959 E67.02302
G1 X92.673 Y85.161 E67.07721
G1 X61.657 Y54.145 E70.00491
G1 X61.442 Y52.984 E70.08375
G1 X92.821 Y84.363 E73.04572
G1 X92.969 Y83.564 E73.09990
G1 X61.227 Y51.822 E76.09615
G1 X61.012 Y50.661 E76.17498
G1 X93.117 Y82.766 E79.20550
G1 X93.265 Y81.968 E79.25968
G1 X60.797 Y49.500 E82.32447
G1 X60.581 Y48.339 E82.40330
G1 X93.413 Y81.170 E85.50237
G1 X93.560 Y80.372 E85.55656
G1 X60.366 Y47.177 E88.68989
G1 X60.151 Y46.016 E88.76872
G1 X93.708 Y79.573 E91.93633
G1 X93.856 Y78.775 E91.99051
G1 X60.709 Y45.627 E95.11946
G1 X61.655 Y45.627 E95.18261
G1 X94.004 Y77.977 E98.23622
G1 X94.152 Y77.179 E98.29040
G1 X62.601 Y45.627 E101.26866
G1 X63.547 Y45.627 E101.33181
G1 X94.300 Y76.381 E104.23473
G1 X94.448 Y75.582 E104.28891
G1 X64.493 Y45.627 E107.11648
G1 X65.439 Y45.627 E107.17963
G1 X94.596 Y74.784 E109.93185
G1 X94.744 Y73.986 E109.98603
G1 X66.385 Y45.627 E112.66291
G1 X67.331 Y45.627 E112.72606
G1 X94.892 Y73.188 E115.32760
G1 X95.040 Y72.390 E115.38178
G1 X68.277 Y45.627 E117.90798
G1 X69.224 Y45.627 E117.97113
G1 X95.188 Y71.591 E120.42197
G1 X95.335 Y70.793 E120.47615
G1 X70.170 Y45.627 E122.85165
G1 X71.116 Y45.627 E122.91480
G1 X95.483 Y69.995 E125.21496
G1 X95.631 Y69.197 E125.26914
G1 X72.062 Y45.627 E127.49396
G1 X73.008 Y45.627 E127.55710
G1 X95.779 Y68.399 E129.70657
G1 X95.927 Y67.600 E129.76076
G1 X73.954 Y45.627 E131.83488
G1 X74.900 Y45.627 E131.89803
G1 X96.075 Y66.802 E133.89681
G1 X96.223 Y66.004 E133.95099
G1 X75.846 Y45.627 E135.87442
G1 X76.792 Y45.627 E135.93758
G1 X96.371 Y65.206 E137.78566
G1 X96.519 Y64.408 E137.83984
G1 X77.739 Y45.627 E139.61258
G1 X78.685 Y45.627 E139.67573
G1 X96.667 Y63.609 E141.37312
G1 X96.815 Y62.811 E141.42730
G1 X79.631 Y45.627 E143.04935
G1 X80.577 Y45.627 E143.11250
G1 X96.962 Y62.013 E144.65920
G1 X97.110 Y61.215 E144.71339
G1 X81.523 Y45.627 E146.18474
G1 X82.469 Y45.627 E146.24789
G1 X97.258 Y60.417 E147.64391
G1 X97.406 Y59.618 E147.69809
G1 X83.415 Y45.627 E149.01876
G1 X84.361 Y45.627 E149.08191
G1 X97.554 Y58.820 E150.32724
G1 X97.702 Y58.022 E150.38142
G1 X85.308 Y45.627 E151.55140
G1 X86.254 Y45.627 E151.61455
G1 X97.850 Y57.224 E152.70918
G1 X97.998 Y56.426 E152.76337
G1 X87.200 Y45.627 E153.78266
G1 X88.146 Y45.627 E153.84581
G1 X98.146 Y55.627 E154.78975
G1 X98.294 Y54.829 E154.84393
G1 X89.092 Y45.627 E155.71253
G1 X90.038 Y45.627 E155.77568
G1 X98.442 Y54.031 E156.56894
G1 X98.590 Y53.233 E156.62313
G1 X90.984 Y45.627 E157.34103
G1 X91.930 Y45.627 E157.40418
G1 X98.738 Y52.435 E158.04675
G1 X98.885 Y51.636 E158.10093
G1 X92.876 Y45.627 E158.66815
G1 X93.823 Y45.627 E158.73130
G1 X99.033 Y50.838 E159.22318
G1 X99.181 Y50.040 E159.27736
G1 X94.769 Y45.627 E159.69389
G1 X95.715 Y45.627 E159.75704
G1 X99.329 Y49.242 E160.09823
G1 X99.477 Y48.444 E160.15242
G1 X96.661 Y45.627 E160.41826
G1 X97.607 Y45.627 E160.48141
G1 X99.625 Y47.646 E160.67190
G1 X99.773 Y46.847 E160.72608
G1 X98.553 Y45.627 E160.84123
G1 X99.499 Y45.627 E160.90438
G1 X99.921 Y46.049 E160.94419
M104 S185 ; set temperature
M140 S60 ; set bed temperature
G1 F1800.000 E159.94419
G92 E0
G1 Z0.600 F1800.000
G1 X68.482 Y97.523
G1 F1800.000 E1.00000
G1 X58.654 Y44.477 F1800.000 E3.15792
G1 X101.346 Y44.477 E4.86562
G1 X91.518 Y97.523 E7.02354
G1 X68.482 Y97.523 E7.94499
G1 X68.237 Y97.818 F1800.000
G1 X68.200 Y97.783 F1800.000 E7.94703
G1 X68.167 Y97.744 E7.94906
G1 X68.139 Y97.700 E7.95117
G1 X68.116 Y97.651 E7.95331
G1 X68.101 Y97.604 E7.95528
G1 X58.185 Y44.088 E10.13238
G1 X101.815 Y44.088 E11.87755
G1 X91.899 Y97.604 E14.05465
G1 X91.884 Y97.651 E14.05661
G1 X91.861 Y97.700 E14.05876
G1 X91.833 Y97.744 E14.06087
G1 X91.801 Y97.783 E14.06290
G1 X91.763 Y97.818 E14.06492
G1 X91.720 Y97.849 E14.06706
G1 X91.675 Y97.874 E14.06911
G1 X91.629 Y97.892 E14.07112
G1 X91.577 Y97.906 E14.07326
G1 X91.525 Y97.912 E14.07533
G1 X68.475 Y97.912 E14.99736
G1 X68.423 Y97.906 E14.99943
G1 X68.371 Y97.892 E15.00158
G1 X68.325 Y97.874 E15.00358
G1 X68.284 Y97.852 E15.00542
G1 X68.237 Y97.818 E15.00776
G1 X67.989 Y98.119 F1800.000
G1 X67.915 Y98.051 F1800.000 E15.01179
G1 X67.851 Y97.973 E15.01581
G1 X67.797 Y97.888 E15.01985
G1 X67.754 Y97.796 E15.02392
G1 X67.722 Y97.701 E15.02790
G1 X67.659 Y97.357 E15.04190
G1 X67.659 Y97.357 E15.04191
G1 X57.717 Y43.698 E17.22479
G1 X102.283 Y43.698 E19.00743
G1 X92.278 Y97.701 E21.20431
G1 X92.246 Y97.796 E21.20830
G1 X92.203 Y97.888 E21.21237
G1 X92.149 Y97.973 E21.21641
G1 X92.085 Y98.051 E21.22043
G1 X92.011 Y98.119 E21.22446
G1 X91.929 Y98.179 E21.22850
G1 X91.842 Y98.227 E21.23251
G1 X91.748 Y98.264 E21.23653
G1 X91.650 Y98.289 E21.24059
G1 X91.550 Y98.302 E21.24461
G1 X68.450 Y98.302 E22.16863
G1 X68.350 Y98.289 E22.17265
G1 X68.252 Y98.264 E22.17671
G1 X68.158 Y98.227 E22.18073
G1 X68.070 Y98.178 E22.18477
G1 X67.989 Y98.119 E22.18878
G1 X67.829 Y97.764 F1800.000
G1 F1800.000 E21.18878
G92 E0
G1 X91.318 Y97.009 F1800.000
G1 F1800.000 E1.00000
G1 X91.070 Y97.257 F1800.000 E1.01404
G1 X90.519 Y97.257 E1.03610
G1 X91.444 Y96.332 E1.08844
G1 X91.569 Y95.656 E1.11597
G1 X89.968 Y97.257 E1.20659
G1 X89.416 Y97.257 E1.22865
G1 X91.694 Y94.979 E1.35756
G1 X91.820 Y94.303 E1.38510
G1 X88.865 Y97.257 E1.55230
G1 X88.314 Y97.257 E1.57436
G1 X91.945 Y93.626 E1.77984
G1 X92.070 Y92.949 E1.80738
G1 X87.763 Y97.257 E2.05115
G1 X87.211 Y97.257 E2.07321
G1 X92.196 Y92.273 E2.35528
G1 X92.321 Y91.596 E2.38281
G1 X86.660 Y97.257 E2.70316
G1 X86.109 Y97.257 E2.72522
G1 X92.446 Y90.920 E3.08386
G1 X92.572 Y90.243 E3.11140
G1 X85.558 Y97.257 E3.50833
G1 X85.007 Y97.257 E3.53038
G1 X92.697 Y89.566 E3.96560
G1 X92.822 Y88.890 E3.99313
G1 X84.455 Y97.257 E4.46664
G1 X83.904 Y97.257 E4.48870
G1 X92.948 Y88.213 E5.00049
G1 X93.073 Y87.537 E5.02803
G1 X83.353 Y97.257 E5.57811
G1 X82.802 Y97.257 E5.60017
G1 X93.198 Y86.860 E6.18854
G1 X93.324 Y86.184 E6.21608
G1 X82.250 Y97.257 E6.84274
G1 X81.699 Y97.257 E6.86480
G1 X93.449 Y85.507 E7.52974
G1 X93.575 Y84.830 E7.55728
G1 X81.148 Y97.257 E8.26052
G1 X80.597 Y97.257 E8.28258
G1 X93.700 Y84.154 E9.02411
G1 X93.825 Y83.477 E9.05164
G1 X80.046 Y97.257 E9.83145
G1 X79.494 Y97.257 E9.85351
G1 X93.951 Y82.801 E10.67162
G1 X94.076 Y82.124 E10.69915
G1 X78.943 Y97.257 E11.55554
G1 X78.392 Y97.257 E11.57760
G1 X94.201 Y81.447 E12.47228
G1 X94.327 Y80.771 E12.49982
G1 X77.840 Y97.257 E13.43279
G1 X77.289 Y97.257 E13.45485
G1 X94.452 Y80.094 E14.42610
G1 X94.577 Y79.418 E14.45364
G1 X76.738 Y97.257 E15.46319
G1 X76.187 Y97.257 E15.48525
G1 X94.703 Y78.741 E16.53308
G1 X94.828 Y78.064 E16.56062
G1 X75.636 Y97.257 E17.64675
G1 X75.084 Y97.257 E17.66880
G1 X94.954 Y77.388 E18.79321
G1 X95.079 Y76.711 E18.82074
G1 X74.533 Y97.257 E19.98345
G1 X73.982 Y97.257 E20.00550
G1 X95.204 Y76.035 E21.20650
G1 X95.330 Y75.358 E21.23403
G1 X73.431 Y97.257 E22.47331
G1 X72.879 Y97.257 E22.49537
G1 X95.455 Y74.682 E23.77294
G1 X95.580 Y74.005 E23.80047
G1 X72.328 Y97.257 E25.11632
G1 X71.777 Y97.257 E25.13838
G1 X95.706 Y73.328 E26.49252
G1 X95.831 Y72.652 E26.52006
G1 X71.226 Y97.257 E27.91250
G1 X70.674 Y97.257 E27.93455
G1 X95.956 Y71.975 E29.36528
G1 X96.082 Y71.299 E29.39281
G1 X70.123 Y97.257 E30.86182
G1 X69.572 Y97.257 E30.88388
G1 X96.207 Y70.622 E32.39117
G1 X96.332 Y69.945 E32.41871
G1 X69.021 Y97.257 E33.96430
G1 X68.649 Y97.078 E33.98083
G1 X96.458 Y69.269 E35.55457
G1 X96.583 Y68.592 E35.58211
G1 X68.562 Y96.613 E37.16782
