; generated by Slic3r 0.9.4-dev on 2012-11-19 at 15:36:08

; layer_height = 0.25
; perimeters = 3
; top_solid_layers = 3
; bottom_solid_layers = 3
; fill_density = 0.4
; perimeter_speed = 30
; infill_speed = 30
; travel_speed = 30
; scale = 1
; nozzle_diameter = 0.35
; filament_diameter = 1.75
; extrusion_multiplier = 1
; perimeters extrusion width = 0.39mm
; infill extrusion width = 0.39mm
; first layer extrusion width = 0.70mm

M190 S65 ; wait for bed temperature to be reached
M104 S190 ; set temperature
G28 ; home all axes
M109 S190 ; wait for temperature to be reached
G90 ; use absolute coordinates
G21 ; set units to millimeters
G92 E0
M82 ; use absolute distances for extrusion
G1 F1800.000 E-1.00000
G92 E0
G1 Z0.350 F1800.000
G1 X57.120 Y42.231
G1 F1800.000 E1.00000
G1 X57.380 Y42.201 F540.000 E1.02380
G1 X57.640 Y42.181 E1.04751
G1 X102.350 Y42.181 E5.11297
G1 X102.610 Y42.201 E5.13668
G1 X102.870 Y42.231 E5.16048
G1 X103.140 Y42.261 E5.18518
G1 X103.400 Y42.311 E5.20926
G1 X103.660 Y42.371 E5.23352
G1 X103.920 Y42.441 E5.25801
G1 X104.170 Y42.511 E5.28161
G1 X104.420 Y42.601 E5.30577
G1 X104.670 Y42.701 E5.33026
G1 X104.910 Y42.811 E5.35426
G1 X105.150 Y42.931 E5.37866
G1 X105.380 Y43.051 E5.40225
G1 X105.610 Y43.191 E5.42673
G1 X105.830 Y43.331 E5.45045
G1 X106.050 Y43.491 E5.47518
G1 X106.260 Y43.651 E5.49919
G1 X106.460 Y43.821 E5.52305
G1 X106.660 Y44.001 E5.54752
G1 X106.850 Y44.191 E5.57195
G1 X107.030 Y44.381 E5.59575
G1 X107.200 Y44.581 E5.61962
G1 X107.370 Y44.791 E5.64419
G1 X107.530 Y45.001 E5.66819
G1 X107.670 Y45.221 E5.69191
G1 X107.810 Y45.451 E5.71639
G1 X107.940 Y45.681 E5.74041
G1 X108.070 Y45.921 E5.76523
G1 X108.180 Y46.161 E5.78924
G1 X108.280 Y46.401 E5.81288
G1 X108.370 Y46.651 E5.83704
G1 X108.450 Y46.901 E5.86091
G1 X108.530 Y47.161 E5.88564
G1 X108.590 Y47.421 E5.90991
G1 X108.640 Y47.681 E5.93398
G1 X108.680 Y47.941 E5.95790
G1 X108.710 Y48.201 E5.98170
G1 X108.730 Y48.471 E6.00632
G1 X108.740 Y48.731 E6.02998
G1 X108.740 Y49.001 E6.05453
G1 X108.730 Y49.271 E6.07910
G1 X108.710 Y49.531 E6.10281
G1 X108.670 Y49.791 E6.12673
G1 X108.630 Y50.061 E6.15155
G1 X108.580 Y50.321 E6.17562
G1 X98.630 Y94.131 E10.26070
G1 X98.570 Y94.371 E10.28319
G1 X98.500 Y94.611 E10.30592
G1 X98.420 Y94.851 E10.32893
G1 X98.330 Y95.091 E10.35223
G1 X98.230 Y95.321 E10.37504
G1 X98.160 Y95.481 E10.39092
G1 X98.060 Y95.711 E10.41372
G1 X97.940 Y95.941 E10.43731
G1 X97.810 Y96.171 E10.46134
G1 X97.680 Y96.391 E10.48457
G1 X97.540 Y96.601 E10.50752
G1 X97.450 Y96.731 E10.52190
G1 X97.310 Y96.931 E10.54410
G1 X97.160 Y97.121 E10.56611
G1 X97.010 Y97.301 E10.58742
G1 X96.850 Y97.481 E10.60931
G1 X96.620 Y97.711 E10.63889
G1 X96.360 Y97.961 E10.67169
G1 X96.090 Y98.191 E10.70394
G1 X95.810 Y98.401 E10.73577
G1 X95.520 Y98.601 E10.76780
G1 X95.220 Y98.781 E10.79961
G1 X95.080 Y98.861 E10.81427
G1 X94.390 Y99.201 E10.88422
G1 X94.320 Y99.231 E10.89114
G1 X94.050 Y99.341 E10.91765
G1 X93.780 Y99.441 E10.94383
G1 X93.500 Y99.531 E10.97058
G1 X93.210 Y99.601 E10.99770
G1 X92.930 Y99.661 E11.02374
G1 X92.770 Y99.691 E11.03854
G1 X92.520 Y99.731 E11.06157
G1 X92.280 Y99.761 E11.08356
G1 X92.030 Y99.781 E11.10636
G1 X91.790 Y99.801 E11.12826
G1 X68.200 Y99.801 E13.27329
G1 X67.960 Y99.781 E13.29519
G1 X67.710 Y99.761 E13.31799
G1 X67.470 Y99.731 E13.33999
G1 X67.220 Y99.691 E13.36301
G1 X67.060 Y99.661 E13.37781
G1 X66.780 Y99.601 E13.40385
G1 X66.490 Y99.531 E13.43098
G1 X66.210 Y99.441 E13.45772
G1 X65.940 Y99.341 E13.48390
G1 X65.670 Y99.231 E13.51041
G1 X65.600 Y99.201 E13.51734
G1 X64.910 Y98.861 E13.58728
G1 X64.770 Y98.781 E13.60194
G1 X64.470 Y98.601 E13.63375
G1 X64.180 Y98.401 E13.66579
G1 X63.900 Y98.191 E13.69761
G1 X63.630 Y97.961 E13.72986
G1 X63.370 Y97.711 E13.76266
G1 X63.140 Y97.481 E13.79224
G1 X62.980 Y97.301 E13.81414
G1 X62.830 Y97.121 E13.83544
G1 X62.680 Y96.931 E13.85745
G1 X62.540 Y96.731 E13.87965
G1 X62.450 Y96.601 E13.89403
G1 X62.310 Y96.391 E13.91698
G1 X62.180 Y96.171 E13.94022
G1 X62.050 Y95.941 E13.96424
G1 X61.930 Y95.711 E13.98783
G1 X61.830 Y95.481 E14.01063
G1 X61.760 Y95.321 E14.02651
G1 X61.660 Y95.091 E14.04932
G1 X61.570 Y94.851 E14.07263
G1 X61.490 Y94.611 E14.09563
G1 X61.420 Y94.371 E14.11836
G1 X61.360 Y94.131 E14.14086
G1 X51.410 Y50.321 E18.22593
G1 X51.360 Y50.061 E18.25001
G1 X51.320 Y49.791 E18.27483
G1 X51.280 Y49.531 E18.29874
G1 X51.260 Y49.271 E18.32246
G1 X51.250 Y49.001 E18.34702
G1 X51.250 Y48.731 E18.37158
G1 X51.260 Y48.471 E18.39523
G1 X51.280 Y48.201 E18.41985
G1 X51.310 Y47.941 E18.44365
G1 X51.350 Y47.681 E18.46757
G1 X51.400 Y47.421 E18.49165
G1 X51.460 Y47.161 E18.51591
G1 X51.540 Y46.901 E18.54064
G1 X51.620 Y46.651 E18.56451
G1 X51.710 Y46.401 E18.58867
G1 X51.810 Y46.161 E18.61231
G1 X51.920 Y45.921 E18.63632
G1 X52.050 Y45.681 E18.66114
G1 X52.180 Y45.451 E18.68516
G1 X52.320 Y45.221 E18.70965
G1 X52.460 Y45.001 E18.73336
G1 X52.620 Y44.791 E18.75736
G1 X52.790 Y44.581 E18.78193
G1 X52.960 Y44.381 E18.80580
G1 X53.140 Y44.191 E18.82960
G1 X53.330 Y44.001 E18.85403
G1 X53.530 Y43.821 E18.87850
G1 X53.730 Y43.651 E18.90237
G1 X53.940 Y43.491 E18.92637
G1 X54.160 Y43.331 E18.95111
G1 X54.380 Y43.191 E18.97482
G1 X54.610 Y43.051 E18.99930
G1 X54.840 Y42.931 E19.02289
G1 X55.080 Y42.811 E19.04729
G1 X55.320 Y42.701 E19.07130
G1 X55.570 Y42.601 E19.09578
G1 X55.820 Y42.511 E19.11994
G1 X56.070 Y42.441 E19.14355
G1 X56.330 Y42.371 E19.16803
G1 X56.590 Y42.311 E19.19229
G1 X56.850 Y42.261 E19.21637
G1 X57.061 Y42.238 E19.23569
G1 F1800.000 E18.23569
G92 E0
G1 X59.573 Y50.176 F1800.000
G1 F1800.000 E1.00000
G1 X100.427 Y50.176 F540.000 E4.71487
G1 X90.962 Y91.824 E8.59849
G1 X69.038 Y91.824 E10.59200
G1 X59.586 Y50.234 E14.47025
G1 X58.743 Y49.513 F1800.000
G1 X101.257 Y49.513 F540.000 E18.33604
G1 X91.491 Y92.487 E22.34321
G1 X68.509 Y92.487 E24.43288
G1 X58.756 Y49.571 E28.43467
G1 X57.913 Y48.851 F1800.000
G1 X102.087 Y48.851 F540.000 E32.45138
G1 X92.131 Y92.657 E36.53617
G1 X92.104 Y92.739 E36.54407
G1 X92.069 Y92.814 E36.55161
G1 X92.025 Y92.883 E36.55907
G1 X91.973 Y92.946 E36.56644
G1 X91.914 Y93.001 E36.57382
G1 X91.848 Y93.049 E36.58124
G1 X91.776 Y93.089 E36.58868
G1 X91.701 Y93.118 E36.59600
G1 X91.621 Y93.139 E36.60353
G1 X91.541 Y93.149 E36.61093
G1 X68.459 Y93.149 E38.70968
G1 X68.379 Y93.139 E38.71708
G1 X68.299 Y93.118 E38.72460
G1 X68.224 Y93.089 E38.73193
G1 X68.152 Y93.049 E38.73937
G1 X68.086 Y93.001 E38.74679
G1 X68.027 Y92.946 E38.75417
G1 X67.975 Y92.883 E38.76152
G1 X67.931 Y92.814 E38.76904
G1 X67.896 Y92.739 E38.77653
G1 X67.869 Y92.657 E38.78443
G1 X57.926 Y48.909 E42.86384
G1 X58.041 Y48.536 F1800.000
G1 F1800.000 E41.86384
G92 E0
G1 X99.485 Y50.727 F1800.000
G1 F1800.000 E1.00000
G1 X99.709 Y50.950 F540.000 E1.02088
G1 X99.535 Y51.714 E1.07272
G1 X98.548 Y50.727 E1.16511
G1 X97.610 Y50.727 E1.22715
G1 X99.362 Y52.478 E1.39105
G1 X99.187 Y53.243 E1.44295
G1 X96.671 Y50.727 E1.67835
G1 X95.733 Y50.727 E1.74040
G1 X99.014 Y54.007 E2.04732
G1 X98.840 Y54.772 E2.09915
G1 X94.796 Y50.727 E2.47758
G1 X93.858 Y50.726 E2.53962
G1 X98.667 Y55.536 E2.98955
G1 X98.493 Y56.300 E3.04145
G1 X92.919 Y50.727 E3.56289
G1 X91.981 Y50.727 E3.62494
G1 X98.319 Y57.065 E4.21789
G1 X98.146 Y57.829 E4.26972
G1 X91.043 Y50.726 E4.93418
G1 X90.105 Y50.727 E4.99627
G1 X97.972 Y58.594 E5.73224
G1 X97.798 Y59.358 E5.78407
G1 X89.167 Y50.727 E6.59155
G1 X88.229 Y50.727 E6.65359
G1 X97.625 Y60.122 E7.53258
G1 X97.450 Y60.887 E7.58447
G1 X87.291 Y50.727 E8.53496
G1 X86.353 Y50.727 E8.59701
G1 X97.277 Y61.651 E9.61901
G1 X97.103 Y62.415 E9.67084
G1 X85.415 Y50.727 E10.76436
G1 X84.477 Y50.726 E10.82640
G1 X96.930 Y63.179 E11.99142
G1 X96.756 Y63.944 E12.04331
G1 X83.539 Y50.727 E13.27983
G1 X82.601 Y50.727 E13.34187
G1 X96.582 Y64.708 E14.64991
G1 X96.409 Y65.472 E14.70175
G1 X81.663 Y50.726 E16.08129
G1 X80.724 Y50.727 E16.14338
G1 X96.234 Y66.237 E17.59443
G1 X96.061 Y67.001 E17.64627
G1 X79.787 Y50.727 E19.16883
G1 X78.849 Y50.727 E19.23087
G1 X95.887 Y67.765 E20.82494
G1 X95.713 Y68.530 E20.87683
G1 X77.910 Y50.727 E22.54241
G1 X76.972 Y50.727 E22.60445
G1 X95.540 Y69.294 E24.34154
G1 X95.366 Y70.058 E24.39338
G1 X76.035 Y50.727 E26.20197
G1 X75.097 Y50.726 E26.26402
G1 X95.193 Y70.822 E28.14412
G1 X95.019 Y71.587 E28.19601
G1 X74.158 Y50.727 E30.14762
G1 X73.220 Y50.727 E30.20966
G1 X94.845 Y72.351 E32.23278
G1 X94.672 Y73.115 E32.28462
G1 X72.283 Y50.726 E34.37925
G1 X71.344 Y50.727 E34.44134
G1 X94.497 Y73.880 E36.60747
G1 X94.324 Y74.644 E36.65931
G1 X70.406 Y50.727 E38.89695
G1 X69.468 Y50.727 E38.95901
G1 X94.150 Y75.409 E41.26816
G1 X93.976 Y76.173 E41.32002
G1 X68.530 Y50.727 E43.70068
G1 X67.592 Y50.727 E43.76274
G1 X93.803 Y76.937 E46.21491
G1 X93.629 Y77.702 E46.26676
G1 X66.654 Y50.727 E48.79044
G1 X65.716 Y50.727 E48.85249
G1 X93.455 Y78.466 E51.44768
G1 X93.282 Y79.230 E51.49953
G1 X64.778 Y50.727 E54.16623
G1 X63.840 Y50.727 E54.22829
G1 X93.108 Y79.995 E56.96649
G1 X92.934 Y80.759 E57.01834
G1 X62.902 Y50.727 E59.82805
G1 X61.964 Y50.727 E59.89011
G1 X92.760 Y81.523 E62.77133
G1 X92.587 Y82.288 E62.82319
G1 X61.026 Y50.727 E65.77592
G1 X60.351 Y50.990 E65.82383
G1 X92.413 Y83.052 E68.82344
G1 X92.239 Y83.816 E68.87529
G1 X60.627 Y52.204 E71.83284
G1 X60.903 Y53.418 E71.91519
G1 X92.066 Y84.581 E74.83067
G1 X91.892 Y85.345 E74.88253
G1 X61.179 Y54.632 E77.75595
G1 X61.454 Y55.846 E77.83830
G1 X91.718 Y86.109 E80.66965
G1 X91.545 Y86.874 E80.72151
G1 X61.730 Y57.060 E83.51081
G1 X62.006 Y58.274 E83.59317
G1 X91.371 Y87.638 E86.34040
G1 X91.197 Y88.403 E86.39225
G1 X62.282 Y59.488 E89.09742
G1 X62.558 Y60.701 E89.17977
G1 X91.023 Y89.167 E91.84288
G1 X90.850 Y89.931 E91.89473
G1 X62.834 Y61.915 E94.51578
G1 X63.110 Y63.129 E94.59813
G1 X90.676 Y90.696 E97.17711
G1 X90.316 Y91.273 E97.22216
G1 X63.386 Y64.343 E99.74162
G1 X63.662 Y65.557 E99.82397
G1 X89.378 Y91.273 E102.22987
G1 X88.440 Y91.273 E102.29192
G1 X63.937 Y66.771 E104.58425
G1 X64.213 Y67.985 E104.66660
G1 X87.502 Y91.273 E106.84535
G1 X86.563 Y91.273 E106.90740
G1 X64.489 Y69.199 E108.97258
G1 X64.765 Y70.413 E109.05493
G1 X85.625 Y91.273 E111.00654
G1 X84.687 Y91.273 E111.06859
G1 X65.041 Y71.627 E112.90662
G1 X65.317 Y72.841 E112.98897
G1 X83.749 Y91.273 E114.71344
G1 X82.811 Y91.273 E114.77549
G1 X65.593 Y74.055 E116.38638
G1 X65.869 Y75.269 E116.46874
G1 X81.873 Y91.273 E117.96605
G1 X80.935 Y91.273 E118.02811
G1 X66.145 Y76.483 E119.41185
G1 X66.420 Y77.697 E119.49420
G1 X79.997 Y91.273 E120.76438
G1 X79.059 Y91.273 E120.82644
G1 X66.696 Y78.911 E121.98304
G1 X66.972 Y80.125 E122.06540
G1 X78.121 Y91.273 E123.10843
G1 X77.183 Y91.273 E123.17048
G1 X67.248 Y81.338 E124.09995
G1 X67.524 Y82.552 E124.18230
G1 X76.245 Y91.273 E124.99819
G1 X75.307 Y91.273 E125.06025
G1 X67.800 Y83.766 E125.76257
G1 X68.076 Y84.980 E125.84492
G1 X74.369 Y91.273 E126.43367
G1 X73.431 Y91.273 E126.49572
G1 X68.352 Y86.194 E126.97090
G1 X68.628 Y87.408 E127.05326
G1 X72.493 Y91.273 E127.41486
G1 X71.555 Y91.273 E127.47692
G1 X68.904 Y88.622 E127.72495
G1 X69.179 Y89.836 E127.80730
G1 X70.617 Y91.273 E127.94176
G1 X69.455 Y91.050 E128.02000
G1 X69.679 Y91.273 E128.04089
M104 S185 ; set temperature
M140 S60 ; set bed temperature
G1 F1800.000 E127.04089
G92 E0
G1 Z0.600 F1800.000
G1 X91.519 Y92.523
G1 F1800.000 E1.00000
G1 X68.481 Y92.523 F1800.000 E1.92155
G1 X58.698 Y49.477 E3.68727
G1 X101.302 Y49.477 E5.39144
G1 X91.532 Y92.465 E7.15479
G1 X91.903 Y92.593 F1800.000
G1 X91.884 Y92.651 F1800.000 E7.15723
G1 X91.861 Y92.700 E7.15937
G1 X91.833 Y92.744 E7.16149
G1 X91.801 Y92.783 E7.16351
G1 X91.763 Y92.818 E7.16554
G1 X91.720 Y92.849 E7.16767
G1 X91.675 Y92.874 E7.16973
G1 X91.629 Y92.892 E7.17173
G1 X91.577 Y92.906 E7.17387
G1 X91.525 Y92.912 E7.17595
G1 X68.475 Y92.912 E8.09797
G1 X68.423 Y92.906 E8.10005
G1 X68.371 Y92.892 E8.10219
G1 X68.325 Y92.874 E8.10420
G1 X68.279 Y92.849 E8.10627
G1 X68.237 Y92.818 E8.10838
G1 X68.200 Y92.783 E8.11041
G1 X68.167 Y92.744 E8.11245
G1 X68.139 Y92.700 E8.11455
G1 X68.116 Y92.651 E8.11669
G1 X68.097 Y92.593 E8.11913
G1 X58.210 Y49.088 E9.90373
G1 X101.790 Y49.088 E11.64695
G1 X91.916 Y92.536 E13.42918
G1 X92.279 Y92.697 F1800.000
G1 X92.246 Y92.796 F1800.000 E13.43333
G1 X92.203 Y92.888 E13.43740
G1 X92.149 Y92.973 E13.44144
G1 X92.085 Y93.051 E13.44546
G1 X92.011 Y93.119 E13.44948
G1 X91.929 Y93.179 E13.45353
G1 X91.842 Y93.227 E13.45754
G1 X91.748 Y93.264 E13.46155
G1 X91.650 Y93.289 E13.46561
G1 X91.550 Y93.302 E13.46963
G1 X68.450 Y93.302 E14.39366
G1 X68.350 Y93.289 E14.39768
G1 X68.252 Y93.264 E14.40174
G1 X68.158 Y93.227 E14.40575
G1 X68.070 Y93.178 E14.40979
G1 X67.989 Y93.119 E14.41381
G1 X67.915 Y93.051 E14.41784
G1 X67.851 Y92.973 E14.42186
G1 X67.797 Y92.888 E14.42590
G1 X67.754 Y92.796 E14.42997
G1 X67.721 Y92.697 E14.43411
G1 X57.722 Y48.698 E16.23896
G1 X102.278 Y48.698 E18.02123
G1 X92.292 Y92.640 E19.82371
G1 X91.320 Y92.021 F1800.000
G1 X91.097 Y92.245 F1800.000 E19.83641
G1 X90.542 Y92.245 E19.85871
G1 X91.483 Y91.304 E19.91222
G1 X91.646 Y90.587 E19.94181
G1 X89.988 Y92.245 E20.03612
G1 X89.434 Y92.245 E20.05842
G1 X91.809 Y89.869 E20.19355
G1 X91.972 Y89.152 E20.22314
G1 X88.879 Y92.245 E20.39908
G1 X88.325 Y92.245 E20.42137
G1 X92.135 Y88.434 E20.63812
G1 X92.299 Y87.717 E20.66771
G1 X87.771 Y92.245 E20.92527
G1 X87.216 Y92.245 E20.94756
G1 X92.462 Y86.999 E21.24593
G1 X92.625 Y86.282 E21.27552
G1 X86.662 Y92.245 E21.61469
G1 X86.107 Y92.245 E21.63699
G1 X92.788 Y85.564 E22.01696
G1 X92.951 Y84.847 E22.04655
G1 X85.553 Y92.245 E22.46734
G1 X84.999 Y92.245 E22.48964
G1 X93.114 Y84.130 E22.95124
G1 X93.277 Y83.412 E22.98083
G1 X84.444 Y92.245 E23.48323
G1 X83.890 Y92.245 E23.50553
G1 X93.440 Y82.695 E24.04874
G1 X93.603 Y81.977 E24.07833
G1 X83.335 Y92.245 E24.66235
G1 X82.781 Y92.245 E24.68465
G1 X93.766 Y81.260 E25.30948
G1 X93.929 Y80.542 E25.33907
G1 X82.227 Y92.245 E26.00471
G1 X81.672 Y92.245 E26.02700
G1 X94.092 Y79.825 E26.73345
G1 X94.255 Y79.108 E26.76304
G1 X81.118 Y92.245 E27.51030
G1 X80.564 Y92.245 E27.53260
G1 X94.418 Y78.390 E28.32066
G1 X94.581 Y77.673 E28.35026
G1 X80.009 Y92.245 E29.17913
G1 X79.455 Y92.245 E29.20143
G1 X94.744 Y76.955 E30.07111
G1 X94.908 Y76.238 E30.10070
G1 X78.900 Y92.245 E31.01119
G1 X78.346 Y92.245 E31.03348
G1 X95.071 Y75.520 E31.98478
G1 X95.233 Y74.803 E32.01436
G1 X77.792 Y92.245 E33.00645
G1 X77.237 Y92.245 E33.02874
G1 X95.397 Y74.086 E34.06165
G1 X95.560 Y73.368 E34.09126
G1 X76.683 Y92.245 E35.16499
G1 X76.128 Y92.245 E35.18729
G1 X95.723 Y72.651 E36.30181
G1 X95.886 Y71.933 E36.33141
G1 X75.574 Y92.245 E37.48675
G1 X75.020 Y92.245 E37.50905
G1 X96.049 Y71.215 E38.70522
G1 X96.211 Y70.498 E38.73482
G1 X74.465 Y92.244 E39.97177
G1 X73.910 Y92.244 E39.99407
G1 X96.375 Y69.780 E41.27184
G1 X96.537 Y69.063 E41.30141
G1 X73.356 Y92.244 E42.61997
G1 X72.801 Y92.244 E42.64227
G1 X96.701 Y68.345 E44.00165
G1 X96.864 Y67.628 E44.03126
G1 X72.247 Y92.244 E45.43146
G1 X71.693 Y92.244 E45.45376
G1 X97.027 Y66.911 E46.89475
G1 X97.190 Y66.193 E46.92436
G1 X71.138 Y92.244 E48.40618
G1 X70.584 Y92.244 E48.42847
G1 X97.353 Y65.476 E49.95107
G1 X97.516 Y64.758 E49.98068
G1 X70.030 Y92.244 E51.54410
G1 X69.475 Y92.244 E51.56640
G1 X97.679 Y64.040 E53.17065
G1 X97.842 Y63.323 E53.20022
G1 X68.921 Y92.244 E54.84525
G1 X68.622 Y91.989 E54.86107
G1 X98.005 Y62.606 E56.53241
G1 X98.168 Y61.889 E56.56198
G1 X68.519 Y91.537 E58.24840
G1 X68.416 Y91.086 E58.26703
G1 X98.331 Y61.171 E59.96859
G1 X98.494 Y60.453 E59.99819
G1 X68.314 Y90.634 E61.71488
G1 X68.211 Y90.182 E61.73351
G1 X98.657 Y59.736 E63.46528
G1 X98.820 Y59.019 E63.49489
G1 X68.108 Y89.731 E65.24179
G1 X68.006 Y89.279 E65.26042
G1 X98.983 Y58.302 E67.02241
G1 X99.146 Y57.584 E67.05202
G1 X67.903 Y88.827 E68.82914
G1 X67.800 Y88.375 E68.84777
G1 X99.310 Y56.866 E70.64003
G1 X99.472 Y56.149 E70.66960
G1 X67.698 Y87.924 E72.47694
G1 X67.595 Y87.472 E72.49557
G1 X99.636 Y55.431 E74.31804
G1 X99.798 Y54.714 E74.34762
G1 X67.493 Y87.020 E76.18518
G1 X67.390 Y86.569 E76.20381
G1 X99.962 Y53.997 E78.05650
G1 X100.125 Y53.279 E78.08611
