; generated by Slic3r 0.9.4-dev on 2012-11-26 at 15:29:00

; layer_height = 0.25
; perimeters = 3
; top_solid_layers = 3
; bottom_solid_layers = 3
; fill_density = 0.4
; perimeter_speed = 30
; infill_speed = 30
; travel_speed = 30
; scale = 1
; nozzle_diameter = 0.35
; filament_diameter = 1.75
; extrusion_multiplier = 1
; perimeters extrusion width = 0.39mm
; infill extrusion width = 0.39mm
; first layer extrusion width = 0.70mm

M190 S65 ; wait for bed temperature to be reached
M104 S190 ; set temperature
G28 ; home all axes
M109 S190 ; wait for temperature to be reached
G90 ; use absolute coordinates
G21 ; set units to millimeters
G92 E0
M82 ; use absolute distances for extrusion
G1 F1800.000 E-1.00000
G92 E0
G1 Z0.350 F1800.000
G1 X30.930 Y54.970
G1 F1800.000 E1.00000
G1 X70.850 Y42.970 F540.000 E4.79036
G1 X71.160 Y42.880 E4.81972
G1 X71.480 Y42.810 E4.84950
G1 X71.800 Y42.760 E4.87895
G1 X72.120 Y42.720 E4.90828
G1 X72.450 Y42.700 E4.93834
G1 X72.770 Y42.690 E4.96745
G1 X122.490 Y42.690 E9.48847
G1 X122.760 Y42.710 E9.51309
G1 X123.030 Y42.740 E9.53779
G1 X123.300 Y42.780 E9.56261
G1 X123.570 Y42.830 E9.58758
G1 X123.840 Y42.890 E9.61273
G1 X124.100 Y42.960 E9.63721
G1 X124.360 Y43.040 E9.66194
G1 X124.610 Y43.130 E9.68611
G1 X125.110 Y43.350 E9.73578
G1 X125.350 Y43.470 E9.76018
G1 X125.590 Y43.600 E9.78499
G1 X126.050 Y43.900 E9.83493
G1 X126.270 Y44.060 E9.85967
G1 X126.480 Y44.230 E9.88423
G1 X126.690 Y44.410 E9.90938
G1 X126.880 Y44.590 E9.93318
G1 X127.080 Y44.790 E9.95890
G1 X127.260 Y44.990 E9.98337
G1 X127.600 Y45.410 E10.03250
G1 X127.900 Y45.870 E10.08244
G1 X128.040 Y46.100 E10.10692
G1 X128.160 Y46.340 E10.13132
G1 X128.280 Y46.590 E10.15654
G1 X128.390 Y46.840 E10.18137
G1 X128.490 Y47.090 E10.20586
G1 X128.650 Y47.610 E10.25533
G1 X128.720 Y47.870 E10.27981
G1 X133.650 Y69.550 E12.30149
G1 X133.710 Y69.840 E12.32842
G1 X133.750 Y70.140 E12.35594
G1 X133.790 Y70.430 E12.38256
G1 X133.810 Y70.730 E12.40990
G1 X133.810 Y89.980 E14.16029
G1 X133.780 Y90.640 E14.22037
G1 X133.770 Y90.740 E14.22951
G1 X133.580 Y91.800 E14.32743
G1 X133.540 Y91.950 E14.34155
G1 X133.460 Y92.210 E14.36628
G1 X133.380 Y92.460 E14.39015
G1 X133.280 Y92.720 E14.41548
G1 X133.180 Y92.970 E14.43996
G1 X133.020 Y93.290 E14.47249
G1 X132.540 Y94.100 E14.55811
G1 X132.450 Y94.230 E14.57249
G1 X132.310 Y94.430 E14.59468
G1 X132.160 Y94.620 E14.61670
G1 X132.010 Y94.800 E14.63800
G1 X131.850 Y94.980 E14.65990
G1 X131.620 Y95.210 E14.68948
G1 X131.360 Y95.460 E14.72227
G1 X131.090 Y95.690 E14.75453
G1 X130.810 Y95.900 E14.78635
G1 X130.520 Y96.100 E14.81838
G1 X130.220 Y96.280 E14.85020
G1 X130.080 Y96.360 E14.86486
G1 X129.840 Y96.490 E14.88968
G1 X129.610 Y96.610 E14.91327
G1 X129.370 Y96.710 E14.93691
G1 X129.120 Y96.810 E14.96139
G1 X128.880 Y96.900 E14.98470
G1 X128.730 Y96.950 E14.99908
G1 X127.930 Y97.160 E15.07428
G1 X127.830 Y97.180 E15.08356
G1 X127.570 Y97.230 E15.10763
G1 X127.310 Y97.270 E15.13155
G1 X127.050 Y97.290 E15.15526
G1 X126.780 Y97.310 E15.17988
G1 X33.510 Y97.310 E23.66088
G1 X32.850 Y97.280 E23.72096
G1 X32.750 Y97.270 E23.73010
G1 X31.690 Y97.080 E23.82802
G1 X31.540 Y97.040 E23.84213
G1 X31.280 Y96.960 E23.86687
G1 X31.030 Y96.880 E23.89074
G1 X30.770 Y96.780 E23.91607
G1 X30.520 Y96.680 E23.94055
G1 X30.200 Y96.520 E23.97308
G1 X29.390 Y96.040 E24.05870
G1 X29.260 Y95.950 E24.07307
G1 X29.060 Y95.810 E24.09527
G1 X28.870 Y95.660 E24.11728
G1 X28.690 Y95.510 E24.13859
G1 X28.510 Y95.350 E24.16049
G1 X28.280 Y95.120 E24.19007
G1 X28.030 Y94.860 E24.22286
G1 X27.800 Y94.590 E24.25511
G1 X27.590 Y94.310 E24.28694
G1 X27.390 Y94.020 E24.31897
G1 X27.210 Y93.720 E24.35078
G1 X27.130 Y93.580 E24.36545
G1 X27.000 Y93.340 E24.39027
G1 X26.880 Y93.110 E24.41385
G1 X26.780 Y92.870 E24.43750
G1 X26.680 Y92.620 E24.46198
G1 X26.590 Y92.380 E24.48529
G1 X26.540 Y92.230 E24.49966
G1 X26.450 Y91.940 E24.52727
G1 X26.380 Y91.660 E24.55352
G1 X26.320 Y91.370 E24.58045
G1 X26.270 Y91.080 E24.60721
G1 X26.230 Y90.780 E24.63473
G1 X26.220 Y90.680 E24.64386
G1 X26.190 Y90.020 E24.70394
G1 X26.190 Y61.080 E27.33544
G1 X26.210 Y60.820 E27.35915
G1 X26.240 Y60.550 E27.38386
G1 X26.270 Y60.290 E27.40765
G1 X26.320 Y60.030 E27.43173
G1 X26.380 Y59.770 E27.45599
G1 X26.450 Y59.510 E27.48048
G1 X26.610 Y59.010 E27.52821
G1 X26.710 Y58.760 E27.55269
G1 X26.820 Y58.510 E27.57753
G1 X26.940 Y58.280 E27.60112
G1 X27.070 Y58.040 E27.62594
G1 X27.200 Y57.810 E27.64996
G1 X27.500 Y57.370 E27.69839
G1 X27.670 Y57.160 E27.72295
G1 X27.840 Y56.960 E27.74682
G1 X28.020 Y56.760 E27.77129
G1 X28.200 Y56.570 E27.79509
G1 X28.400 Y56.390 E27.81955
G1 X28.600 Y56.220 E27.84342
G1 X28.810 Y56.050 E27.86799
G1 X29.020 Y55.900 E27.89145
G1 X29.240 Y55.750 E27.91567
G1 X29.470 Y55.610 E27.94015
G1 X29.700 Y55.480 E27.96417
G1 X30.180 Y55.240 E28.01297
G1 X30.430 Y55.140 E28.03745
G1 X30.680 Y55.050 E28.06162
G1 X30.874 Y54.988 E28.08010
G1 F1800.000 E27.08010
G92 E0
G1 X113.453 Y79.961 F1800.000
G1 F1800.000 E1.00000
G1 X113.615 Y79.462 F540.000 E1.04770
G1 X113.839 Y78.987 E1.09540
G1 X114.120 Y78.544 E1.14313
G1 X114.454 Y78.140 E1.19082
G1 X114.837 Y77.781 E1.23854
G1 X115.261 Y77.472 E1.28625
G1 X115.721 Y77.219 E1.33398
G1 X116.209 Y77.026 E1.38168
G1 X116.717 Y76.896 E1.42936
G1 X117.238 Y76.830 E1.47708
G1 X117.763 Y76.830 E1.52482
G1 X118.283 Y76.896 E1.57254
G1 X118.791 Y77.026 E1.62022
G1 X119.279 Y77.219 E1.66792
G1 X119.739 Y77.472 E1.71565
G1 X120.163 Y77.781 E1.76337
G1 X120.546 Y78.140 E1.81108
G1 X120.880 Y78.544 E1.85877
G1 X121.161 Y78.987 E1.90650
G1 X121.385 Y79.462 E1.95421
G1 X121.547 Y79.961 E2.00191
G1 X121.645 Y80.477 E2.04965
G1 X121.678 Y81.000 E2.09734
G1 X121.645 Y81.523 E2.14503
G1 X121.547 Y82.039 E2.19277
G1 X121.385 Y82.538 E2.24047
G1 X121.161 Y83.013 E2.28818
G1 X120.880 Y83.456 E2.33592
G1 X120.546 Y83.860 E2.38360
G1 X120.163 Y84.219 E2.43131
G1 X119.739 Y84.528 E2.47903
G1 X119.279 Y84.781 E2.52676
G1 X118.791 Y84.974 E2.57446
G1 X118.283 Y85.104 E2.62214
G1 X117.763 Y85.170 E2.66986
G1 X117.237 Y85.170 E2.71760
G1 X116.717 Y85.104 E2.76532
G1 X116.209 Y84.974 E2.81300
G1 X115.721 Y84.781 E2.86070
G1 X115.261 Y84.528 E2.90843
G1 X114.837 Y84.219 E2.95614
G1 X114.454 Y83.860 E3.00386
G1 X114.120 Y83.456 E3.05155
G1 X113.839 Y83.013 E3.09928
G1 X113.615 Y82.538 E3.14698
G1 X113.453 Y82.039 E3.19468
G1 X113.355 Y81.524 E3.24242
G1 X113.322 Y81.000 E3.29012
G1 X113.355 Y80.476 E3.33782
G1 X113.442 Y80.019 E3.38017
G1 X114.096 Y80.126 F1800.000
G1 X114.232 Y79.706 F540.000 E3.42030
G1 X114.420 Y79.307 E3.46043
G1 X114.657 Y78.934 E3.50057
G1 X114.938 Y78.594 E3.54069
G1 X115.260 Y78.292 E3.58082
G1 X115.617 Y78.033 E3.62095
G1 X116.004 Y77.820 E3.66110
G1 X116.414 Y77.658 E3.70122
G1 X116.841 Y77.548 E3.74133
G1 X117.279 Y77.492 E3.78147
G1 X117.721 Y77.492 E3.82162
G1 X118.159 Y77.548 E3.86176
G1 X118.586 Y77.658 E3.90187
G1 X118.996 Y77.820 E3.94199
G1 X119.383 Y78.033 E3.98214
G1 X119.740 Y78.292 E4.02227
G1 X120.062 Y78.594 E4.06240
G1 X120.343 Y78.934 E4.10252
G1 X120.580 Y79.307 E4.14267
G1 X120.768 Y79.706 E4.18280
G1 X120.904 Y80.126 E4.22293
G1 X120.987 Y80.560 E4.26307
G1 X121.014 Y81.000 E4.30319
G1 X120.987 Y81.440 E4.34331
G1 X120.904 Y81.874 E4.38346
G1 X120.768 Y82.294 E4.42359
G1 X120.580 Y82.693 E4.46372
G1 X120.343 Y83.066 E4.50387
G1 X120.062 Y83.406 E4.54398
G1 X119.740 Y83.708 E4.58411
G1 X119.383 Y83.967 E4.62425
G1 X118.996 Y84.180 E4.66439
G1 X118.586 Y84.342 E4.70452
G1 X118.159 Y84.452 E4.74462
G1 X117.721 Y84.508 E4.78476
G1 X117.279 Y84.508 E4.82491
G1 X116.841 Y84.452 E4.86505
G1 X116.414 Y84.342 E4.90516
G1 X116.004 Y84.180 E4.94528
G1 X115.617 Y83.967 E4.98543
G1 X115.260 Y83.708 E5.02556
G1 X114.938 Y83.406 E5.06570
G1 X114.657 Y83.066 E5.10582
G1 X114.420 Y82.693 E5.14596
G1 X114.232 Y82.294 E5.18609
G1 X114.096 Y81.874 E5.22621
G1 X114.013 Y81.440 E5.26636
G1 X113.986 Y81.000 E5.30648
G1 X114.013 Y80.560 E5.34661
G1 X114.085 Y80.184 E5.38138
G1 X114.739 Y80.291 F1800.000
G1 X114.850 Y79.951 F540.000 E5.41393
G1 X115.002 Y79.627 E5.44648
G1 X115.194 Y79.324 E5.47903
G1 X115.422 Y79.049 E5.51158
G1 X115.683 Y78.803 E5.54413
G1 X115.972 Y78.593 E5.57668
G1 X116.286 Y78.421 E5.60925
G1 X116.619 Y78.289 E5.64179
G1 X116.966 Y78.200 E5.67433
G1 X117.321 Y78.155 E5.70689
G1 X117.679 Y78.155 E5.73945
G1 X118.034 Y78.200 E5.77201
G1 X118.381 Y78.289 E5.80455
G1 X118.714 Y78.421 E5.83710
G1 X119.027 Y78.593 E5.86966
G1 X119.317 Y78.803 E5.90221
G1 X119.578 Y79.049 E5.93476
G1 X119.806 Y79.324 E5.96730
G1 X119.998 Y79.627 E5.99987
G1 X120.150 Y79.951 E6.03242
G1 X120.261 Y80.291 E6.06497
G1 X120.328 Y80.643 E6.09753
G1 X120.351 Y81.000 E6.13007
G1 X120.328 Y81.357 E6.16262
G1 X120.261 Y81.709 E6.19518
G1 X120.150 Y82.049 E6.22773
G1 X119.998 Y82.373 E6.26028
G1 X119.806 Y82.676 E6.29285
G1 X119.578 Y82.951 E6.32539
G1 X119.317 Y83.197 E6.35794
G1 X119.027 Y83.407 E6.39049
G1 X118.714 Y83.579 E6.42305
G1 X118.381 Y83.711 E6.45560
G1 X118.034 Y83.800 E6.48814
G1 X117.679 Y83.845 E6.52070
G1 X117.321 Y83.845 E6.55326
G1 X116.966 Y83.800 E6.58581
G1 X116.619 Y83.711 E6.61836
G1 X116.286 Y83.579 E6.65090
G1 X115.972 Y83.407 E6.68347
G1 X115.683 Y83.197 E6.71601
G1 X115.422 Y82.951 E6.74857
G1 X115.194 Y82.676 E6.78111
G1 X115.002 Y82.373 E6.81367
G1 X114.850 Y82.049 E6.84622
G1 X114.739 Y81.709 E6.87877
G1 X114.672 Y81.357 E6.91133
G1 X114.649 Y81.000 E6.94388
G1 X114.672 Y80.643 E6.97643
G1 X114.728 Y80.349 E7.00361
G1 F1800.000 E6.00361
G92 E0
G1 X81.678 Y81.000 F1800.000
G1 F1800.000 E1.00000
G1 X81.645 Y81.524 F540.000 E1.04770
G1 X81.547 Y82.039 E1.09543
G1 X81.385 Y82.538 E1.14313
G1 X81.161 Y83.013 E1.19084
G1 X80.880 Y83.456 E1.23857
G1 X80.546 Y83.860 E1.28626
G1 X80.163 Y84.219 E1.33398
G1 X79.739 Y84.528 E1.38169
G1 X79.279 Y84.781 E1.42942
G1 X78.791 Y84.974 E1.47712
G1 X78.283 Y85.104 E1.52479
G1 X77.763 Y85.170 E1.57252
G1 X77.237 Y85.170 E1.62026
G1 X76.717 Y85.104 E1.66798
G1 X76.209 Y84.974 E1.71566
G1 X75.721 Y84.781 E1.76336
G1 X75.261 Y84.528 E1.81108
G1 X74.837 Y84.219 E1.85880
G1 X74.454 Y83.860 E1.90652
G1 X74.120 Y83.456 E1.95420
G1 X73.839 Y83.013 E2.00194
G1 X73.615 Y82.538 E2.04964
G1 X73.453 Y82.039 E2.09735
G1 X73.355 Y81.524 E2.14508
G1 X73.322 Y81.000 E2.19278
G1 X73.355 Y80.476 E2.24048
G1 X73.453 Y79.961 E2.28821
G1 X73.615 Y79.462 E2.33591
G1 X73.839 Y78.987 E2.38362
G1 X74.120 Y78.544 E2.43135
G1 X74.454 Y78.140 E2.47904
G1 X74.837 Y77.781 E2.52675
G1 X75.261 Y77.472 E2.57447
G1 X75.721 Y77.219 E2.62220
G1 X76.209 Y77.026 E2.66990
G1 X76.717 Y76.896 E2.71757
G1 X77.237 Y76.830 E2.76530
G1 X77.763 Y76.830 E2.81303
G1 X78.283 Y76.896 E2.86076
G1 X78.791 Y77.026 E2.90843
G1 X79.279 Y77.219 E2.95613
G1 X79.739 Y77.472 E3.00386
G1 X80.163 Y77.781 E3.05158
G1 X80.546 Y78.140 E3.09929
G1 X80.880 Y78.544 E3.14698
G1 X81.161 Y78.987 E3.19471
G1 X81.385 Y79.462 E3.24242
G1 X81.547 Y79.961 E3.29012
G1 X81.645 Y80.476 E3.33785
G1 X81.674 Y80.941 E3.38017
G1 X81.014 Y81.000 F1800.000
G1 X80.987 Y81.440 F540.000 E3.42030
G1 X80.904 Y81.874 E3.46044
G1 X80.768 Y82.294 E3.50057
G1 X80.580 Y82.693 E3.54070
G1 X80.343 Y83.066 E3.58084
G1 X80.062 Y83.406 E3.62096
G1 X79.740 Y83.708 E3.66109
G1 X79.383 Y83.967 E3.70123
G1 X78.996 Y84.180 E3.74137
G1 X78.586 Y84.342 E3.78150
G1 X78.159 Y84.452 E3.82160
G1 X77.721 Y84.508 E3.86174
G1 X77.279 Y84.508 E3.90190
G1 X76.841 Y84.452 E3.94203
G1 X76.414 Y84.342 E3.98214
G1 X76.004 Y84.180 E4.02226
G1 X75.617 Y83.967 E4.06241
G1 X75.260 Y83.708 E4.10255
G1 X74.938 Y83.406 E4.14268
G1 X74.657 Y83.066 E4.18279
G1 X74.420 Y82.693 E4.22294
G1 X74.232 Y82.294 E4.26307
G1 X74.096 Y81.874 E4.30320
G1 X74.013 Y81.440 E4.34334
G1 X73.986 Y81.000 E4.38346
G1 X74.013 Y80.560 E4.42359
G1 X74.096 Y80.126 E4.46373
G1 X74.232 Y79.706 E4.50386
G1 X74.420 Y79.307 E4.54399
G1 X74.657 Y78.934 E4.58413
G1 X74.938 Y78.594 E4.62425
G1 X75.260 Y78.292 E4.66438
G1 X75.617 Y78.033 E4.70452
G1 X76.004 Y77.820 E4.74466
G1 X76.414 Y77.658 E4.78479
G1 X76.841 Y77.548 E4.82489
G1 X77.279 Y77.492 E4.86503
G1 X77.721 Y77.492 E4.90518
G1 X78.159 Y77.548 E4.94532
G1 X78.586 Y77.658 E4.98543
G1 X78.996 Y77.820 E5.02556
G1 X79.383 Y78.033 E5.06570
G1 X79.740 Y78.292 E5.10583
G1 X80.062 Y78.594 E5.14597
G1 X80.343 Y78.934 E5.18608
G1 X80.580 Y79.307 E5.22623
G1 X80.768 Y79.706 E5.26636
G1 X80.904 Y80.126 E5.30649
G1 X80.987 Y80.560 E5.34663
G1 X81.011 Y80.941 E5.38138
G1 X80.351 Y81.000 F1800.000
G1 X80.328 Y81.357 F540.000 E5.41392
G1 X80.261 Y81.709 E5.44648
G1 X80.150 Y82.049 E5.47903
G1 X79.998 Y82.373 E5.51158
G1 X79.806 Y82.676 E5.54415
G1 X79.578 Y82.951 E5.57669
G1 X79.317 Y83.197 E5.60924
G1 X79.027 Y83.407 E5.64179
G1 X78.714 Y83.579 E5.67435
G1 X78.381 Y83.711 E5.70690
G1 X78.034 Y83.800 E5.73944
G1 X77.679 Y83.845 E5.77200
G1 X77.321 Y83.845 E5.80456
G1 X76.966 Y83.800 E5.83711
G1 X76.619 Y83.711 E5.86966
G1 X76.286 Y83.579 E5.90220
G1 X75.973 Y83.407 E5.93476
G1 X75.683 Y83.197 E5.96732
G1 X75.422 Y82.951 E5.99987
G1 X75.194 Y82.676 E6.03241
G1 X75.002 Y82.373 E6.06497
G1 X74.850 Y82.049 E6.09752
G1 X74.739 Y81.709 E6.13008
G1 X74.672 Y81.357 E6.16263
G1 X74.649 Y81.000 E6.19518
G1 X74.672 Y80.643 E6.22773
G1 X74.739 Y80.291 E6.26029
G1 X74.850 Y79.951 E6.29284
G1 X75.002 Y79.627 E6.32539
G1 X75.194 Y79.324 E6.35795
G1 X75.422 Y79.049 E6.39050
G1 X75.683 Y78.803 E6.42304
G1 X75.972 Y78.593 E6.45560
G1 X76.286 Y78.421 E6.48816
G1 X76.619 Y78.289 E6.52071
G1 X76.966 Y78.200 E6.55324
G1 X77.321 Y78.155 E6.58580
G1 X77.679 Y78.155 E6.61836
G1 X78.034 Y78.200 E6.65092
G1 X78.381 Y78.289 E6.68346
G1 X78.714 Y78.421 E6.71601
G1 X79.027 Y78.593 E6.74857
G1 X79.317 Y78.803 E6.78112
G1 X79.578 Y79.049 E6.81367
G1 X79.806 Y79.324 E6.84622
G1 X79.998 Y79.627 E6.87878
G1 X80.150 Y79.951 E6.91133
G1 X80.261 Y80.291 E6.94388
G1 X80.328 Y80.643 E6.97644
G1 X80.347 Y80.941 E7.00361
G1 F1800.000 E6.00361
G92 E0
G1 X34.175 Y62.675 F1800.000
G1 F1800.000 E1.00000
G1 X71.110 Y62.675 F540.000 E4.35846
G1 X73.837 Y50.675 E5.47744
G1 X121.163 Y50.675 E9.78079
G1 X125.825 Y71.188 E11.69360
G1 X125.825 Y89.325 E13.34280
G1 X34.175 Y89.325 E21.67652
G1 X34.175 Y62.734 E24.09443
G1 X33.512 Y62.012 F1800.000
G1 X70.581 Y62.012 F540.000 E27.46505
G1 X73.308 Y50.012 E28.58403
G1 X121.692 Y50.012 E32.98354
G1 X126.488 Y71.114 E34.95118
G1 X126.488 Y89.988 E36.66738
G1 X33.512 Y89.988 E45.12157
G1 X33.512 Y62.072 E47.65996
G1 X32.850 Y61.350 F1800.000
G1 X70.052 Y61.350 F540.000 E51.04273
G1 X72.779 Y49.350 E52.16171
G1 X122.221 Y49.350 E56.65738
G1 X127.150 Y71.039 E58.67987
G1 X127.150 Y89.989 E60.40296
G1 X127.144 Y90.081 E60.41138
G1 X127.129 Y90.162 E60.41880
G1 X127.104 Y90.239 E60.42620
G1 X127.069 Y90.313 E60.43362
G1 X127.025 Y90.382 E60.44103
G1 X126.973 Y90.444 E60.44844
G1 X126.914 Y90.500 E60.45586
G1 X126.848 Y90.548 E60.46328
G1 X126.776 Y90.588 E60.47070
G1 X126.701 Y90.618 E60.47811
G1 X126.622 Y90.638 E60.48551
G1 X126.525 Y90.650 E60.49439
G1 X33.511 Y90.650 E68.95210
G1 X33.419 Y90.644 E68.96052
G1 X33.338 Y90.629 E68.96794
G1 X33.261 Y90.604 E68.97535
G1 X33.187 Y90.569 E68.98276
G1 X33.118 Y90.525 E68.99018
G1 X33.056 Y90.473 E68.99759
G1 X33.000 Y90.414 E69.00501
G1 X32.952 Y90.348 E69.01243
G1 X32.912 Y90.276 E69.01984
G1 X32.882 Y90.201 E69.02725
G1 X32.862 Y90.122 E69.03467
G1 X32.850 Y90.025 E69.04351
G1 X32.850 Y61.409 E71.64555
G1 X33.045 Y61.072 F1800.000
G1 F1800.000 E70.64555
G92 E0
G1 X34.949 Y88.774 F1800.000
G1 F1800.000 E1.00000
G1 X34.726 Y88.551 F540.000 E1.02093
G1 X34.726 Y87.611 E1.08325
G1 X35.889 Y88.774 E1.19228
G1 X36.829 Y88.774 E1.25456
G1 X34.726 Y86.671 E1.45170
G1 X34.726 Y85.731 E1.51402
G1 X37.769 Y88.774 E1.79928
G1 X38.708 Y88.775 E1.86155
G1 X34.725 Y84.792 E2.23492
G1 X34.726 Y83.852 E2.29724
G1 X39.648 Y88.774 E2.75871
G1 X40.589 Y88.774 E2.82103
G1 X34.726 Y82.911 E3.37062
G1 X34.726 Y81.972 E3.43289
G1 X41.528 Y88.774 E4.07056
G1 X42.468 Y88.774 E4.13289
G1 X34.726 Y81.032 E4.85867
G1 X34.726 Y80.092 E4.92095
G1 X43.408 Y88.774 E5.73485
G1 X44.348 Y88.774 E5.79717
G1 X34.726 Y79.152 E6.69917
G1 X34.725 Y78.213 E6.76145
